!!!!SEGMENT: pl-wtm--r-130-m--001_moniuszko-stanislaw--msza-es-dur-kyrie.krn
!!!cenid: 18xx:2694
!!!COM: Moniuszko, Stanisław
!!!COM-rismid: pe30008351
!!!CDT: 1819/05/05-1872/06/04
!!!CNT: Polish
!!!OPR: Msza Es-dur
!!!OTL: Kyrie
!!!OMV: 001
!!!PDT: 1865
!!!AGN: Sacred; Mass
!!!SMS-siglum: PL-Wtm
!!!SMS-shelfmark: R 130/M
!!!SMS-shelfwork: 001-001 M
!!!SMS-variant:
!!!SMS-altvar:
!!!NIFC-rismid: 1001095073
!!!URL-scan: http://repozytorium.nifc.pl/skany/pl-wtm-nut--r130m
!!!ONB-nifc: UWAGA: części Mszy: 1. Kyrie, 2. Gloria, 3. Gratias, 4. Credo, 5. Sanctus, 6. Benedictus, 7. Agnus Dei
!!!AIN: 1 alto 1 cbass 1 cello 1 empty 1 organ 1 physh 1 soprn 1 tenor 1 viola 2 violn
!!!key:
**kern	**dynam	**kern	**dynam	**kern	**dynam	**kern	**dynam	**kern	**dynam	**kern	**kern	**kern	**kern	**dynam	**kern	**text	**text	**dynam	**kern	**text	**text	**dynam	**kern	**text	**text	**dynam	**kern	**text	**text	**dynam
*part11	*part11	*part10	*part10	*part9	*part9	*part8	*part8	*part7	*part7	*part6	*part6	*part5	*part5	*part5	*part4	*part4	*part4	*part4	*part3	*part3	*part3	*part3	*part2	*part2	*part2	*part2	*part1	*part1	*part1	*part1
*staff13	*	*staff12	*	*staff11	*	*staff10	*	*staff9	*	*staff8	*staff7	*staff6	*staff5	*	*staff4	*staff4	*staff4	*	*staff3	*staff3	*staff3	*	*staff2	*staff2	*staff2	*	*staff1	*staff1	*staff1	*
*group2	*group2	*group2	*group2	*group2	*group2	*group2	*group2	*group2	*group2	*group	*group	*group	*group	*group	*group1	*group1	*group1	*group1	*group1	*group1	*group1	*group1	*group1	*group1	*group1	*group1	*group1	*group1	*group1	*group1
*Icbass	*	*Icello	*	*Iviola	*	*Ivioln	*	*Ivioln	*	*Iphysh	*Iphysh	*Iorgan	*Iorgan	*	*Iempty	*	*	*	*Itenor	*	*	*	*Ialto	*	*	*	*Isoprn	*	*	*
*I"[Contrabasso]	*	*I"[Violoncello]	*	*I"[Viola]	*	*I"[Violino II]	*	*I"V. 1.	*	*I"Physharmonica	*I"Physharmonica	*I"Organ.	*I"Organ.	*	*I"[Basso]	*	*	*	*I"[Tenore]	*	*	*	*I"[Alto]	*	*	*	*I"[Soprano]	*	*	*
*I'cb	*	*I'vlc	*	*I'vla	*	*I'vl 2	*	*I'vl 1	*	*physharmonica	*physharmonica	*I'org	*I'org	*	*I'B	*	*	*	*I'T	*	*	*	*I'A	*	*	*	*I'S	*	*	*
*clefF4	*	*clefF4	*	*clefC3	*	*clefG2	*	*clefG2	*	*clefF4	*clefG2	*clefF4	*clefG2	*	*clefF4	*	*	*	*clefG2	*	*	*	*clefG2	*	*	*	*clefG2	*	*	*
*Trd0c0	*	*	*	*	*	*	*	*	*	*	*	*	*	*	*	*	*	*	*	*	*	*	*	*	*	*	*	*	*	*
*k[b-e-a-]	*	*k[b-e-a-]	*	*k[b-e-a-]	*	*k[b-e-a-]	*	*k[b-e-a-]	*	*k[b-e-a-]	*k[b-e-a-]	*k[b-e-a-]	*k[b-e-a-]	*	*k[b-e-a-]	*	*	*	*k[b-e-a-]	*	*	*	*k[b-e-a-]	*	*	*	*k[b-e-a-]	*	*	*
*E-:	*	*E-:	*	*E-:	*	*E-:	*	*E-:	*	*E-:	*E-:	*E-:	*E-:	*	*E-:	*	*	*	*E-:	*	*	*	*E-:	*	*	*	*E-:	*	*	*
*M4/4	*	*M4/4	*	*M4/4	*	*M4/4	*	*M4/4	*	*M4/4	*M4/4	*M4/4	*M4/4	*	*M4/4	*	*	*	*M4/4	*	*	*	*M4/4	*	*	*	*M4/4	*	*	*
*met(c)	*	*met(c)	*	*met(c)	*	*met(c)	*	*met(c)	*	*met(c)	*met(c)	*met(c)	*met(c)	*	*met(c)	*	*	*	*met(c)	*	*	*	*met(c)	*	*	*	*met(c)	*	*	*
=1	=1	=1	=1	=1	=1	=1	=1	=1	=1	=1	=1	=1	=1	=1	=1	=1	=1	=1	=1	=1	=1	=1	=1	=1	=1	=1	=1	=1	=1	=1
!!!OMD: Andante.
*2\right	*	*2\right	*	*2\right	*	*2\right	*	*2\right	*	*2\right	*2\right	*2\right	*2\right	*	*2\right	*	*	*	*2\right	*	*	*	*2\right	*	*	*	*2\right	*	*	*
*all\right	*	*all\right	*	*all\right	*	*all\right	*	*all\right	*	*all\right	*all\right	*all\right	*all\right	*	*all\right	*	*	*	*all\right	*	*	*	*all\right	*	*	*	*all\right	*	*	*
*	*	*	*	*	*	*	*	*	*	*	*	*^	*	*	*	*	*	*	*	*	*	*	*	*	*	*	*	*	*	*
!	!	!	!	!	!	!	!	!	!	!	!	!	!	!	!	!	!	!	!	!	!	!	!	!	!	!	!	!LO:TX:a:t=P:problem=w źródle ta adnotacja zapisana pionowo, na prawym marginesie strony	!	!	!
!	!LO:DY:b	!	!LO:DY:b	!	!LO:DY:b	!	!LO:DY:b	!	!LO:DY:b	!	!	!	!	!	!	!	!	!	!	!	!	!	!	!	!	!	!	!LO:TX:a:i:t=Msza (Es dur.), której głos organowy znaujduje się na początku tej książki.\nMünchheimer	!	!	!
4ryy	f	4r	f	4r	f	4r	f	4r	f	1ryy	1ryy	4r	2.rEEyy	4r	f	1r	.	.	.	1r	.	.	.	1r	.	.	.	1r	.	.	.
!LO:TX:b:i:t=Col Vceli	!	!	!	!	!	!	!	!	!	!	!	!	!	!	!	!	!	!	!	!	!	!	!	!	!	!	!	!	!	!	!
2E-^\yy	.	2E-^>\	.	2e-^>\	.	2ee-^>\	.	2ee-^>\	.	.	.	2E- 2EE-/	.	2ee- 2e-/	.	.	.	.	.	.	.	.	.	.	.	.	.	.	.	.	.
8.B-\Lyy	.	8.B-\L	.	8.B-/L	.	8.b-\L	.	8.b-\L	.	.	.	8.B-/L 8.BB-/	8.BB-\L	8.b-\L	.	.	.	.	.	.	.	.	.	.	.	.	.	.	.	.	.
16c\Jkyy	.	16c\Jk	.	16c/Jk	.	16cc\Jk	.	16cc\Jk	.	.	.	16c/Jk 16C/	16C\Jk	16cc\Jk	.	.	.	.	.	.	.	.	.	.	.	.	.	.	.	.	.
=2	=2	=2	=2	=2	=2	=2	=2	=2	=2	=2	=2	=2	=2	=2	=2	=2	=2	=2	=2	=2	=2	=2	=2	=2	=2	=2	=2	=2	=2	=2	=2
4c^>\yy	.	4c^>\	.	4c^</	.	4cc^>\	.	4cc^>\	.	1ryy	1ryy	4c/ 4C/	4C\	4cc\	.	1r	.	.	.	1r	.	.	.	1r	.	.	.	1r	.	.	.
8.B-\Lyy	.	8.B-\L	.	8.B-/L	.	8.b-/L	.	8.b-/L	.	.	.	8.B-/L 8.BB-/	8.BB-\L	8.b-/L	.	.	.	.	.	.	.	.	.	.	.	.	.	.	.	.	.
16G\Jkyy	.	16G\Jk	.	16G/Jk	.	16g/Jk	.	16g/Jk	.	.	.	16G/Jk 16GG/	16GG\Jk	16g/Jk	.	.	.	.	.	.	.	.	.	.	.	.	.	.	.	.	.
4E-\yy	.	4E-\	.	4E-/	.	4e-/	.	4e-/	.	.	.	4E- 4EE-/	2ryy	4e-/	.	.	.	.	.	.	.	.	.	.	.	.	.	.	.	.	.
4BB-/yy	.	4BB-/	.	8B-/L	.	4d 4B-/	.	4f/	.	.	.	4B- 4F 4BB-\	.	4f 4d/	.	.	.	.	.	.	.	.	.	.	.	.	.	.	.	.	.
.	.	.	.	8A-/J	.	.	.	.	.	.	.	.	.	.	.	.	.	.	.	.	.	.	.	.	.	.	.	.	.	.	.
=3	=3	=3	=3	=3	=3	=3	=3	=3	=3	=3	=3	=3	=3	=3	=3	=3	=3	=3	=3	=3	=3	=3	=3	=3	=3	=3	=3	=3	=3	=3	=3
2E-\yy	.	2E-\	.	2G/	.	2e- 2B-/	.	2g/	.	1ryy	1ryy	2B- 2G/	2E-\	2g/	.	1r	.	.	.	1r	.	.	.	1r	.	.	.	1r	.	.	.
2C^>/yy	.	2C^</	.	2G 2C^</	.	2e- 2c^</	.	2cc^>\	.	.	.	2c 2G/	2C\	2cc 2e-/	.	.	.	.	.	.	.	.	.	.	.	.	.	.	.	.	.
=4	=4	=4	=4	=4	=4	=4	=4	=4	=4	=4	=4	=4	=4	=4	=4	=4	=4	=4	=4	=4	=4	=4	=4	=4	=4	=4	=4	=4	=4	=4	=4
*	*	*	*	*	*	*	*	*	*	*	*	*	*	*^	*	*	*	*	*	*	*	*	*	*	*	*	*	*	*	*	*
!	!LO:DY:b:rj	!	!LO:DY:b:rj	!	!LO:DY:b	!	!LO:DY:b	!	!LO:DY:b	!	!	!	!	!	!	!LO:DY:rj	!	!	!	!	!	!	!	!	!	!	!	!	!	!	!	!
2AA-X/yy	p	2AA-X/	p	4.F/	p	(<4e-^</	p	(<[<2f/	p	1ryy	1ryy	4.F/	2AA-X\	2f/	4e-\	p	1r	.	.	.	1r	.	.	.	1r	.	.	.	1r	.	.	.
.	.	.	.	.	.	8d/L)	.	.	.	.	.	.	.	.	8d\L	.	.	.	.	.	.	.	.	.	.	.	.	.	.	.	.	.
.	.	.	.	8E-/	.	8c/J	.	.	.	.	.	8E-/	.	.	8c\J	.	.	.	.	.	.	.	.	.	.	.	.	.	.	.	.	.
2BB-/yy	.	2BB-/	.	4.D/	.	4B-/	.	8f/L]	.	.	.	4.D/	2BB-\	8f/L	[<2B-\	.	.	.	.	.	.	.	.	.	.	.	.	.	.	.	.	.
.	.	.	.	.	.	.	.	8g/	.	.	.	.	.	8g/	.	.	.	.	.	.	.	.	.	.	.	.	.	.	.	.	.	.
.	.	.	.	.	.	4B-/	.	8b-/	.	.	.	.	.	8b-/	.	.	.	.	.	.	.	.	.	.	.	.	.	.	.	.	.	.
.	.	.	.	(<16C/LL	.	.	.	8a-/J)	.	.	.	16C/LL	.	8a-/J	.	.	.	.	.	.	.	.	.	.	.	.	.	.	.	.	.	.
.	.	.	.	16D/JJ)	.	.	.	.	.	.	.	16D/JJ	.	.	.	.	.	.	.	.	.	.	.	.	.	.	.	.	.	.	.	.
=5	=5	=5	=5	=5	=5	=5	=5	=5	=5	=5	=5	=5	=5	=5	=5	=5	=5	=5	=5	=5	=5	=5	=5	=5	=5	=5	=5	=5	=5	=5	=5	=5
!	!	!	!	!	!	!	!	!	!	!	!	!LO:TX:b:i:t=ped.	!	!	!	!	!	!	!	!	!	!	!	!	!	!	!	!	!	!	!	!
1E-	.	4.E-\	.	4.E-/	.	4.B-/	.	4.g 4.G/	.	1ryy	1ryy	4E-/	1E-	4g/	4B-\]	.	4.E-\	Ky-	.	.	4.b-/	Ky-	.	.	4.e-/	Ky-	.	.	4.g/	Ky-	.	.
.	.	.	.	.	.	.	.	.	.	.	.	4rF	.	4r	4rcyy	.	.	.	.	.	.	.	.	.	.	.	.	.	.	.	.	.
*	*	*	*	*	*	*	*	*	*	*	*	*	*	*	*	*	*	*ij	*	*	*	*ij	*	*	*	*ij	*	*	*	*	*	*
.	.	8E-\	.	8E-/	.	8G/	.	8B-/	.	.	.	.	.	.	.	.	8E-\	-ri-	.	.	8g/	-ri-	.	.	8B-/	-ri-	.	.	8g/	-ri-	.	.
.	.	4E-\	.	4E-/	.	4B-/	.	4e- 4G/	.	.	.	2rF	.	2r	2rcyy	.	4E-\	-e	.	.	4g/	-e	.	.	4B-/	-e	.	.	4g/	-e	.	.
.	.	4E-\	.	4E-/	.	4B-/	.	4g 4G/	.	.	.	.	.	.	.	.	4E-\	e-	.	.	4g/	e-	.	.	4B-/	e-	.	.	4g/	e-	.	.
*	*	*	*	*	*	*	*	*	*	*	*	*	*	*v	*v	*	*	*	*	*	*	*	*	*	*	*	*	*	*	*	*	*
=6	=6	=6	=6	=6	=6	=6	=6	=6	=6	=6	=6	=6	=6	=6	=6	=6	=6	=6	=6	=6	=6	=6	=6	=6	=6	=6	=6	=6	=6	=6	=6
*	*	*	*	*	*	*	*	*	*	*	*	*	*	*	*	*	*	*	*	*^	*	*	*	*	*	*	*	*	*	*	*
1BB-	.	4F\	.	4.F/	.	4.A-/	.	4.b- 4.d/	.	1ryy	1ryy	1rF	1BB-	1r	.	4.BB-/	-le-	.	.	4.a- 4.f/	2rcyy	-le-	.	.	4.d/	-le-	.	.	4.b-\	-le-	.	.
.	.	4r	.	.	.	.	.	.	.	.	.	.	.	.	.	.	.	.	.	.	.	.	.	.	.	.	.	.	.	.	.	.
.	.	.	.	8F/	.	8d 8A-/	.	8f/	.	.	.	.	.	.	.	8BB-/	-i-	.	.	8a- 8f/	.	-i-	.	.	8d/	-i-	.	.	8f/	-i-	.	.
*	*	*	*	*	*	*	*	*	*	*	*	*	*	*	*	*	*	*	*	*	*2\right	*	*	*	*	*	*	*	*	*	*	*
!	!	!	!	!	!	!	!	!	!	!	!	!LO:TX:a:t=(×):color=dodgerblue	!	!	!	!	!	!	!	!	!	!	!	!	!	!	!	!	!	!	!	!
.	.	[>2F^>\	.	[<2A-^</	.	2d 2A-/	.	2f/	.	.	.	.	.	.	.	2BB-,/	-son	.	.	2a-,/	2f\	-son	.	.	2d,/	-son	.	.	2f,/	-son	.	.
=7	=7	=7	=7	=7	=7	=7	=7	=7	=7	=7	=7	=7	=7	=7	=7	=7	=7	=7	=7	=7	=7	=7	=7	=7	=7	=7	=7	=7	=7	=7	=7	=7
2B-\	.	2F\]	.	2A-/]	.	2d-X^</	.	2b-\	.	1ryy	1ryy	1re@	2B-\@	1r	.	4.F\	Ky-	.	.	4.a-/	4.a-\	Ky-	.	.	4.d-X/	Ky-	.	.	4.b-\	Ky-	.	.
.	.	.	.	.	.	.	.	.	.	.	.	.	.	.	.	8F\	-ri-	.	.	8a-/	8rcyy	-ri-	.	.	8d-/	-ri-	.	.	8b-\	-ri-	.	.
2E-\	.	2E-\	.	2G/	.	4e-/	.	4cc\	.	.	.	.	2E-\@	.	.	4E-\	-e	.	.	4g/	2rcyy	-e	.	.	4e-/	-e	.	.	4cc\	-e	.	.
.	.	.	.	.	.	4d-/	.	4b-\	.	.	.	.	.	.	.	4E-\	e-	.	.	4g/	.	e-	.	.	4d-/	e-	.	.	4b-\	e-	.	.
*	*	*	*	*	*	*	*	*	*	*	*	*	*	*	*	*	*	*	*	*v	*v	*	*	*	*	*	*	*	*	*	*	*
=8	=8	=8	=8	=8	=8	=8	=8	=8	=8	=8	=8	=8	=8	=8	=8	=8	=8	=8	=8	=8	=8	=8	=8	=8	=8	=8	=8	=8	=8	=8	=8
2.A-^>\	.	4.E-^>\	.	4.G^</	.	4.d-X^</	.	4.b-^<\	.	1ryy	1ryy	1rc	2.A-\	1r	.	4.E-\	-le-	.	.	4.g/	-le-	.	.	4.d-X/	-le-	.	.	4.b-\	-le-	.	.
.	.	8A-\	.	8B-/	.	8c/	.	8a-\	.	.	.	.	.	.	.	8A-\	-i-	.	.	8a-/	-i-	.	.	8c/	-i-	.	.	8a-\	-i-	.	.
.	.	4A-\	.	4B-/	.	4e- 4c/	.	4cc\	.	.	.	.	.	.	.	4A-\	-son	.	.	4a-/	-son	.	.	4e-/	-son	.	.	4cc\	-son	.	.
*	*	*	*	*	*	*	*	*	*	*	*	*	*	*	*	*	*Xij	*	*	*	*Xij	*	*	*	*Xij	*	*	*	*	*	*
4r	.	4r	.	4r	.	4r	.	4r	.	.	.	.	4rAA	.	.	4r	.	.	.	4r	.	.	.	4r	.	.	.	4r	.	.	.
!!LO:PB:g=original
=9	=9	=9	=9	=9	=9	=9	=9	=9	=9	=9	=9	=9	=9	=9	=9	=9	=9	=9	=9	=9	=9	=9	=9	=9	=9	=9	=9	=9	=9	=9	=9
1r	.	1A-	.	2c\	.	2e-/	.	(>2cc\	.	1ryy	1ryy	1A-	1rAA	1r	.	4.A-\	.	.	.	4.cc\	.	.	.	4.e-/	.	.	.	4.cc\	Ky-	.	.
.	.	.	.	.	.	.	.	.	.	.	.	.	.	.	.	8A-\	.	.	.	8cc\	.	.	.	8e-/	.	.	.	8cc\	-ri-	.	.
.	.	.	.	4c-X\	.	2f/	.	4dd\)	.	.	.	.	.	.	.	4A-\	.	.	.	4cc-X\	.	.	.	4f/	.	.	.	4dd\	-e	.	.
.	.	.	.	4B-\	.	.	.	4dd\	.	.	.	.	.	.	.	4A-\	.	.	.	4b-\	.	.	.	4f/	.	.	.	4dd\	e-	.	.
=10	=10	=10	=10	=10	=10	=10	=10	=10	=10	=10	=10	=10	=10	=10	=10	=10	=10	=10	=10	=10	=10	=10	=10	=10	=10	=10	=10	=10	=10	=10	=10
*	*	*	*	*	*	*	*	*	*	*	*	*	*	*	*	*	*	*	*	*	*	*	*	*	*	*	*	*2\right	*	*	*
1ryy	.	4.G\	.	2B-/	.	1e-	.	(>4ee-\	.	1ryy	1ryy	4.G/	1rAA	1r	.	4.G\	le-	.	.	2b-\	.	.	.	2e-/	.	.	.	2ee-\	-lei-	.	.
.	.	.	.	.	.	.	.	4e-/	.	.	.	.	.	.	.	.	.	.	.	.	.	.	.	.	.	.	.	.	.	.	.
.	.	8F\	.	.	.	.	.	.	.	.	.	8F/	.	.	.	8F\	-i-	.	.	.	.	.	.	.	.	.	.	.	.	.	.
.	.	4E-\	.	4G/	.	.	.	4b-/)	.	.	.	4E-/	.	.	.	4E-,\	-son	.	.	4g,/	.	.	.	4e-,/	.	.	.	4b-,\	-son,	.	.
.	.	4C\	.	4A-/	.	.	.	4a-/	.	.	.	4C/	.	.	.	4C/	.	.	.	4a-/	.	.	.	4e-/	.	.	.	4a-/	e-	.	.
=11	=11	=11	=11	=11	=11	=11	=11	=11	=11	=11	=11	=11	=11	=11	=11	=11	=11	=11	=11	=11	=11	=11	=11	=11	=11	=11	=11	=11	=11	=11	=11
!	!	!	!	!	!	!	!	!	!	!	!	!LO:TX:b:i:t=ped.	!	!	!	!	!	!	!	!	!	!	!	!	!	!	!	!	!	!	!
2BB-/	.	1BB-	.	2B-/	.	2e-/	.	2g/	.	1ryy	1ryy	1BB-	1BB-	1r	.	[<2BB-/	.	.	.	(<2b-/	.	.	.	(<2e-/	.	.	.	(<2g/	-le-	.	.
4.BB-/	.	.	.	4.A-/	.	4.d/	.	4.f/	.	.	.	.	.	.	.	4.BB-/]	.	.	.	4.a-/)	.	.	.	4.d/)	.	.	.	4.f/)	.	.	.
8E-\	.	.	.	8G/	.	8e-/	.	8e-/	.	.	.	.	.	.	.	8E-\	.	.	.	8g/	.	.	.	8e-/	.	.	.	8e-/	-i-	.	.
=12	=12	=12	=12	=12	=12	=12	=12	=12	=12	=12	=12	=12	=12	=12	=12	=12	=12	=12	=12	=12	=12	=12	=12	=12	=12	=12	=12	=12	=12	=12	=12
2E-;>\	.	(<[<2BB-;>/	.	2G;>/	.	2e-;>/	.	2g;>/	.	1ryy	1ryy	2EE-;>/	2EE-\	1r;>	.	2E-;>\	.	.	.	2b-;>\	.	.	.	2e-;>/	.	.	.	2g;>/	-son	.	.
2r	.	8BB-/L]	.	2r	.	2r	.	2r	.	.	.	8BB-/L	2rEE	.	.	2r	.	.	.	2r	.	.	.	2r	.	.	.	2r	.	.	.
.	.	8E-/	.	.	.	.	.	.	.	.	.	8E-/	.	.	.	.	.	.	.	.	.	.	.	.	.	.	.	.	.	.	.
.	.	8G/)	.	.	.	.	.	.	.	.	.	8G/	.	.	.	.	.	.	.	.	.	.	.	.	.	.	.	.	.	.	.
!	!	!	!	!	!LO:DY:b:t=pp.	!	!LO:DY:b:t=pp.	!	!	!	!	!	!	!	!	!	!	!	!	!	!	!	!	!	!	!	!	!	!	!	!
.	.	8B-/J	.	.	pp	.	pp	.	.	.	.	8B-/J	.	.	.	.	.	.	.	.	.	.	.	.	.	.	.	.	.	.	.
*	*	*	*	*	*	*	*	*	*	*	*	*v	*v	*	*	*	*	*	*	*	*	*	*	*	*	*	*	*	*	*	*
=13	=13	=13	=13	=13	=13	=13	=13	=13	=13	=13	=13	=13	=13	=13	=13	=13	=13	=13	=13	=13	=13	=13	=13	=13	=13	=13	=13	=13	=13	=13
!	!	!	!LO:DY:b:rj:t=pp.	!	!	!	!	!	!LO:DY:b:rj:t=pp.	!	!	!	!	!	!	!	!	!	!	!	!	!	!	!	!	!	!	!	!	!LO:DY:a
1r	.	[>1e-	pp	4e-\	.	4g/	.	4r	pp	1ryy	1ryy	1r	[>1g [>1e-	.	1r	.	.	.	1r	.	.	.	1r	.	.	.	2b-\	Chri-	.	p
.	.	.	.	4e-\	.	4g/	.	2b-\	.	.	.	.	.	.	.	.	.	.	.	.	.	.	.	.	.	.	.	.	.	.
.	.	.	.	4e-\	.	4g/	.	.	.	.	.	.	.	.	.	.	.	.	.	.	.	.	.	.	.	.	4b-\	-ste	.	.
.	.	.	.	4e-\	.	4g/	.	(>4b-\	.	.	.	.	.	.	.	.	.	.	.	.	.	.	.	.	.	.	4b-\	e-	.	.
=14	=14	=14	=14	=14	=14	=14	=14	=14	=14	=14	=14	=14	=14	=14	=14	=14	=14	=14	=14	=14	=14	=14	=14	=14	=14	=14	=14	=14	=14	=14
*	*	*rep	*	*rep	*	*rep	*	*	*	*	*	*	*rep	*	*	*	*	*	*	*	*	*	*	*	*	*	*	*	*	*
1r	.	1e-_>	.	4e-\	.	4g/	.	4bn\)	.	1ryy	1ryy	1r	1g] 1e-_<	.	1r	.	.	.	1r	.	.	.	1r	.	.	.	4.bn\	-le-	.	.
.	.	.	.	4e-\	.	4g/	.	2b\	.	.	.	.	.	.	.	.	.	.	.	.	.	.	.	.	.	.	.	.	.	.
.	.	.	.	.	.	.	.	.	.	.	.	.	.	.	.	.	.	.	.	.	.	.	.	.	.	.	8b\	-i-	.	.
.	.	.	.	4e-\	.	4g/	.	.	.	.	.	.	.	.	.	.	.	.	.	.	.	.	.	.	.	.	2b,\	-son	.	.
.	.	.	.	4e-\	.	4g/	.	4b\	.	.	.	.	.	.	.	.	.	.	.	.	.	.	.	.	.	.	.	.	.	.
*	*	*Xrep	*	*Xrep	*	*Xrep	*	*	*	*	*	*	*Xrep	*	*	*	*	*	*	*	*	*	*	*	*	*	*	*	*	*
=15	=15	=15	=15	=15	=15	=15	=15	=15	=15	=15	=15	=15	=15	=15	=15	=15	=15	=15	=15	=15	=15	=15	=15	=15	=15	=15	=15	=15	=15	=15
*	*	*rep	*	*rep	*	*	*	*	*	*	*	*	*	*	*	*	*	*	*	*	*	*	*	*	*	*	*	*	*	*
1r	.	1e-]	.	4e-\	.	4g-X/	.	(>2cc\	.	1ryy	1ryy	1r	1g-X 1e-]	.	1r	.	.	.	1r	.	.	.	1r	.	.	.	4.cc\	Ky-	.	.
.	.	.	.	4e-\	.	2g-^</	.	.	.	.	.	.	.	.	.	.	.	.	.	.	.	.	.	.	.	.	.	.	.	.
.	.	.	.	.	.	.	.	.	.	.	.	.	.	.	.	.	.	.	.	.	.	.	.	.	.	.	8cc\	-ri-	.	.
.	.	.	.	4e-\	.	.	.	4dd\)	.	.	.	.	.	.	.	.	.	.	.	.	.	.	.	.	.	.	4dd\	-e	.	.
.	.	.	.	4e-\	.	4g-/	.	4cc\	.	.	.	.	.	.	.	.	.	.	.	.	.	.	.	.	.	.	4cc\	e-	.	.
*	*	*Xrep	*	*Xrep	*	*	*	*	*	*	*	*	*	*	*	*	*	*	*	*	*	*	*	*	*	*	*	*	*	*
=16	=16	=16	=16	=16	=16	=16	=16	=16	=16	=16	=16	=16	=16	=16	=16	=16	=16	=16	=16	=16	=16	=16	=16	=16	=16	=16	=16	=16	=16	=16
1r	.	1d	.	4d\	.	4f/	.	(>2cc\	.	1ryy	1ryy	1r	1f 1d	.	1r	.	.	.	1r	.	.	.	1r	.	.	.	2cc\	-lei-	.	.
.	.	.	.	4d\	.	4f/	.	.	.	.	.	.	.	.	.	.	.	.	.	.	.	.	.	.	.	.	.	.	.	.
.	.	.	.	4d\	.	4f/	.	2b-\)	.	.	.	.	.	.	.	.	.	.	.	.	.	.	.	.	.	.	4b-\	-son	.	.
.	.	.	.	4d\	.	4f/	.	.	.	.	.	.	.	.	.	.	.	.	.	.	.	.	.	.	.	.	4r	.	.	.
!!LO:PB:g=original
=17	=17	=17	=17	=17	=17	=17	=17	=17	=17	=17	=17	=17	=17	=17	=17	=17	=17	=17	=17	=17	=17	=17	=17	=17	=17	=17	=17	=17	=17	=17
*	*	*	*	*	*	*	*	*	*	*	*	*	*^	*	*	*	*	*	*	*	*	*	*	*	*	*	*	*	*	*
1r	.	1d-X	.	4d-X\	.	2f/	.	4b-\	.	1ryy	1ryy	1r	2b-/	1d-X	.	1r	.	.	.	1r	.	.	.	2f/	Chri-	.	.	1r	.	.	.
.	.	.	.	4d-\	.	.	.	2b-\	.	.	.	.	.	.	.	.	.	.	.	.	.	.	.	.	.	.	.	.	.	.	.
.	.	.	.	4d-\	.	4g-X/	.	.	.	.	.	.	4g-X/	.	.	.	.	.	.	.	.	.	.	4g-X/	-ste	.	.	.	.	.	.
.	.	.	.	4d-\	.	4f/	.	[>4b-\	.	.	.	.	4f/	.	.	.	.	.	.	.	.	.	.	4f/	e-	.	.	.	.	.	.
=18	=18	=18	=18	=18	=18	=18	=18	=18	=18	=18	=18	=18	=18	=18	=18	=18	=18	=18	=18	=18	=18	=18	=18	=18	=18	=18	=18	=18	=18	=18	=18
1r	.	1c	.	4c\	.	4.f/	.	4b-\]	.	1ryy	1ryy	1r	4.f/	1c	.	1r	.	.	.	1r	.	.	.	4.f^</	-le-	.	.	1r	.	.	.
.	.	.	.	4c\	.	.	.	2b-\	.	.	.	.	.	.	.	.	.	.	.	.	.	.	.	.	.	.	.	.	.	.	.
.	.	.	.	.	.	8en/	.	.	.	.	.	.	8en/	.	.	.	.	.	.	.	.	.	.	8en/	-i-	.	.	.	.	.	.
.	.	.	.	4c\	.	4e/	.	.	.	.	.	.	2e/	.	.	.	.	.	.	.	.	.	.	2e,/	-son	.	.	.	.	.	.
.	.	.	.	4c\	.	4e/	.	4b-\	.	.	.	.	.	.	.	.	.	.	.	.	.	.	.	.	.	.	.	.	.	.	.
=19	=19	=19	=19	=19	=19	=19	=19	=19	=19	=19	=19	=19	=19	=19	=19	=19	=19	=19	=19	=19	=19	=19	=19	=19	=19	=19	=19	=19	=19	=19	=19
*	*	*	*	*	*	*	*	*	*	*	*	*^	*	*	*	*	*	*	*	*	*	*	*	*	*	*	*	*	*	*	*
*	*	*	*	*rep	*	*	*	*	*	*	*	*	*	*	*	*	*	*	*	*	*	*	*	*	*	*	*	*	*	*	*	*
1r	.	1G-X	.	4c\	.	4e-X/	.	4.b-\	.	1ryy	1ryy	1G-X	1r	4e-X/	[<1c	.	1r	.	.	.	1r	.	.	.	1e-X	e-	.	.	4.b-\	Ky-	.	.
.	.	.	.	4c\	.	2.e-/	.	.	.	.	.	.	.	4b-/	.	.	.	.	.	.	.	.	.	.	.	.	.	.	.	.	.	.
.	.	.	.	.	.	.	.	8b-\	.	.	.	.	.	.	.	.	.	.	.	.	.	.	.	.	.	.	.	.	8b-\	-ri-	.	.
.	.	.	.	4c\	.	.	.	4cc\	.	.	.	.	.	4cc/	.	.	.	.	.	.	.	.	.	.	.	.	.	.	4cc\	-e	.	.
.	.	.	.	4c\	.	.	.	4b-\	.	.	.	.	.	4b-/	.	.	.	.	.	.	.	.	.	.	.	.	.	.	4b-\	e-	.	.
*	*	*	*	*Xrep	*	*	*	*	*	*	*	*	*	*	*	*	*	*	*	*	*	*	*	*	*	*	*	*	*	*	*	*
=20	=20	=20	=20	=20	=20	=20	=20	=20	=20	=20	=20	=20	=20	=20	=20	=20	=20	=20	=20	=20	=20	=20	=20	=20	=20	=20	=20	=20	=20	=20	=20	=20
2r	.	2.F\	.	4c\	.	4.e-^</	.	(>2b-\	.	1ryy	1ryy	2.F/	2rBB	2b-/	1c]	.	1r	.	.	.	1r	.	.	.	2e-/	-lei-	.	.	2b-\	-lei-	.	.
.	.	.	.	4c\	.	.	.	.	.	.	.	.	.	.	.	.	.	.	.	.	.	.	.	.	.	.	.	.	.	.	.	.
.	.	.	.	.	.	8e-/	.	.	.	.	.	.	.	.	.	.	.	.	.	.	.	.	.	.	.	.	.	.	.	.	.	.
!	!LO:DY:b:rj	!	!	!	!	!	!	!	!	!	!	!LO:TX:b:i:t=ped.	!	!	!	!	!	!	!	!	!	!	!	!	!	!	!	!	!	!	!	!
2F\	p	.	.	4F/	.	4f/	.	4a-/)	.	.	.	.	[<2FF\	2an/	.	.	.	.	.	.	.	.	.	.	8c/	-son	.	.	4an\	-son	.	.
.	.	.	.	.	.	.	.	.	.	.	.	.	.	.	.	.	.	.	.	.	.	.	.	.	8r	.	.	.	.	.	.	.
.	.	4E-\	.	4E-/	.	(<8c/L	.	4r	.	.	.	4E-/	.	.	.	.	.	.	.	.	.	.	.	.	4f/	.	.	.	4r	.	.	.
.	.	.	.	.	.	8f/J)	.	.	.	.	.	.	.	.	.	.	.	.	.	.	.	.	.	.	.	.	.	.	.	.	.	.
=21	=21	=21	=21	=21	=21	=21	=21	=21	=21	=21	=21	=21	=21	=21	=21	=21	=21	=21	=21	=21	=21	=21	=21	=21	=21	=21	=21	=21	=21	=21	=21	=21
!	!	!	!	!	!	!	!	!	!	!	!	!	!	!	!	!	!	!	!	!LO:DY:a:rj	!	!	!	!LO:DY:a:rj	!	!	!	!LO:DY:a:rj	!	!	!	!LO:DY:a
1F	.	(>2D\	.	(<2D/	.	1f	.	4b-/	.	1ryy	1ryy	2D/	1FF_<	(>2b-/	[<1B-	.	4.D\	Ky-	.	p	[>1b-	Ky-	.	p	(>1f	le-	.	p	2b-/	Chri-	.	p
.	.	.	.	.	.	.	.	2B-^</	.	.	.	.	.	.	.	.	.	.	.	.	.	.	.	.	.	.	.	.	.	.	.	.
.	.	.	.	.	.	.	.	.	.	.	.	.	.	.	.	.	8D\	-ri-	.	.	.	.	.	.	.	.	.	.	.	.	.	.
.	.	4D'\	.	4D'/	.	.	.	.	.	.	.	4D/	.	4an/	.	.	4D\	-e	.	.	.	.	.	.	.	.	.	.	4an/	-ste	.	.
.	.	4D'\)	.	4D'/)	.	.	.	[<4B-/	.	.	.	4D/	.	4g/	.	.	4D\	e-	.	.	.	.	.	.	.	.	.	.	4g/	e-	.	.
=22	=22	=22	=22	=22	=22	=22	=22	=22	=22	=22	=22	=22	=22	=22	=22	=22	=22	=22	=22	=22	=22	=22	=22	=22	=22	=22	=22	=22	=22	=22	=22	=22
1F	.	4.F\	.	4.F/	.	[>1e-	.	4B-/]	.	1ryy	1ryy	2F/	1FF]	2g/	2B-/]	.	4.F\	-le-	.	.	2b-/]	.	.	.	2.e-/)	.	.	.	2g/	-lei-	.	.
.	.	.	.	.	.	.	.	(<8c/L	.	.	.	.	.	.	.	.	.	.	.	.	.	.	.	.	.	.	.	.	.	.	.	.
.	.	8C\	.	8C/	.	.	.	8B-/J	.	.	.	.	.	.	.	.	8C\	-i-	.	.	.	.	.	.	.	.	.	.	.	.	.	.
!	!	!	!	!	!	!	!	!	!	!	!	!	!	!	!LO:N:vis=2:xstem	!	!	!	!	!	!	!	!	!	!	!	!	!	!	!	!	!
.	.	2C/	.	2C/	.	.	.	8An/L	.	.	.	2C/	.	2f/)	2An\	.	2C,\	-son	.	.	2an/	-ri-	.	.	.	.	.	.	4f/	-son	.	.
.	.	.	.	.	.	.	.	8c/J	.	.	.	.	.	.	.	.	.	.	.	.	.	.	.	.	.	.	.	.	.	.	.	.
.	.	.	.	.	.	.	.	4f/)	.	.	.	.	.	.	.	.	.	.	.	.	.	.	.	.	4e-/	-i-	.	.	4r	.	.	.
=23	=23	=23	=23	=23	=23	=23	=23	=23	=23	=23	=23	=23	=23	=23	=23	=23	=23	=23	=23	=23	=23	=23	=23	=23	=23	=23	=23	=23	=23	=23	=23	=23
2F\	.	4.F\	.	4.F/	.	2.e-/]	.	(<8A-X/L	.	1ryy	1ryy	2F/	2F\	(2a-X/	4A-X\	.	4.F\	Ky-	.	.	(>4a-X/	-e	.	.	2.c,/	-son	.	.	4.a-X/	Ky-	.	.
.	.	.	.	.	.	.	.	8c/	.	.	.	.	.	.	.	.	.	.	.	.	.	.	.	.	.	.	.	.	.	.	.	.
.	.	.	.	.	.	.	.	8f/	.	.	.	.	.	.	4c\	.	.	.	.	.	4cc\	.	.	.	.	.	.	.	.	.	.	.
.	.	8F\	.	8F/	.	.	.	8a-X/J)	.	.	.	.	.	.	.	.	8F\	-ri-	.	.	.	.	.	.	.	.	.	.	8a-/	-ri-	.	.
*	*	*	*	*	*	*	*	*	*	*	*	*	*	*	*2\left	*	*	*	*	*	*	*	*	*	*	*	*	*	*	*	*	*
2BB-/	.	4G\	.	4G/	.	.	.	4.b-/	.	.	.	4G/	2BB-\	4b-/	2B-\	.	4G\	-e	.	.	4b-,\)	.	.	.	.	.	.	.	4.b-/	-e	.	.
*	*	*	*	*	*	*	*	*	*	*	*	*	*	*	*2\right	*	*	*	*	*	*	*	*	*	*	*	*	*	*	*	*	*
.	.	4F\	.	4F/	.	4d/	.	.	.	.	.	4F/	.	4a-/	.	.	4F\	e-	.	.	4b-\	e-	.	.	4d/	e-	.	.	.	.	.	.
!	!	!	!	!	!	!	!	!LO:TX:b:t=(×):color=grey	!	!	!	!	!	!	!	!	!	!	!	!	!	!	!	!	!	!	!	!	!	!	!	!
.	.	.	.	.	.	.	.	8a-/	.	.	.	.	.	.	.	.	.	.	.	.	.	.	.	.	.	.	.	.	8a-/	e-	.	.
=24	=24	=24	=24	=24	=24	=24	=24	=24	=24	=24	=24	=24	=24	=24	=24	=24	=24	=24	=24	=24	=24	=24	=24	=24	=24	=24	=24	=24	=24	=24	=24	=24
*	*	*	*	*	*	*	*	*	*	*	*	*	*	*	*^	*	*	*	*	*	*	*	*	*	*	*	*	*	*	*	*	*
2.E-\	.	4.F^>\	.	4.F^</	.	4.d 4.B-^</	.	(<4a-X/	.	1ryy	1ryy	4.F/	2EE-\	(>2a-/	(<(>4.d\	2B-\	.	4.F\	-le-	.	.	2b-\	-lei-	.	.	4.d/	-lei-	.	.	2a-/@	-lei-	.	.
.	.	.	.	.	.	.	.	4B-/	.	.	.	.	.	.	.	.	.	.	.	.	.	.	.	.	.	.	.	.	.	.	.	.	.
.	.	8E-\	.	8E-/	.	8e-/	.	.	.	.	.	8E-/	.	.	8e-\)	.	.	8E-\	-i-	.	.	.	.	.	.	8e-/	.	.	.	.	.	.	.
.	.	8G\	.	4G/	.	8e-/	.	8g/)	.	.	.	4G/	4E-\	8g/))	8e-\)	4B-\	.	4G\	-son	.	.	4b-\	-son	.	.	4e-/	-son	.	.	4g/@	-son	.	.
.	.	8r	.	.	.	8r	.	8r	.	.	.	.	.	8r	8rcyy	.	.	.	.	.	.	.	.	.	.	.	.	.	.	.	.	.	.
4D\	.	4D\	.	4B-/	.	4B-/	.	4b-\	.	.	.	4rc	4D\	4r	4rcyy	4ryy	.	4r	.	.	.	4r	.	.	.	4r	.	.	.	4r	.	.	.
*	*	*	*	*	*	*	*	*	*	*	*	*	*	*	*v	*v	*	*	*	*	*	*	*	*	*	*	*	*	*	*	*	*	*
!!LO:PB:g=original
=25	=25	=25	=25	=25	=25	=25	=25	=25	=25	=25	=25	=25	=25	=25	=25	=25	=25	=25	=25	=25	=25	=25	=25	=25	=25	=25	=25	=25	=25	=25	=25	=25
!	!	!	!	!	!	!	!	!	!	!	!	!	!	!	!	!	!	!	!	!LO:DY:a:rj	!	!	!	!LO:DY:a	!	!	!	!LO:DY:a	!	!	!	!LO:DY:a
2C/	.	2C\	.	4.c\	.	2g/	.	4.ee-\	.	1ryy	1ryy	4.c/	2C\	4.ee-/	2g\	.	(>2c\	Ky-	.	mf	4.cc\	Ky-	.	mf	(<2g/	Ky-	.	mf	4.ee-\	Ky-	.	mf
.	.	.	.	8B-\	.	.	.	8dd\	.	.	.	8B-/	.	8dd/	.	.	.	.	.	.	8b-\	-ri-	.	.	.	.	.	.	8dd\	-ri-	.	.
4F\	.	4F\	.	4An/	.	4c/	.	4cc\	.	.	.	4An/	4F\	4cc/	4ryy	.	4F\)	.	.	.	4an\	-e	.	.	4c/)	.	.	.	4cc\	-e	.	.
4E-\	.	4E-\	.	4A/	.	4f/	.	4cc\	.	.	.	4A/	4E-\	4cc/	4f\	.	4E-\	-ri-	.	.	4a\	e-	.	.	4f/	-ri-	.	.	4cc\	e-	.	.
=26	=26	=26	=26	=26	=26	=26	=26	=26	=26	=26	=26	=26	=26	=26	=26	=26	=26	=26	=26	=26	=26	=26	=26	=26	=26	=26	=26	=26	=26	=26	=26	=26
*	*	*	*	*	*	*	*	*2\left	*	*	*	*	*	*	*	*	*	*	*	*	*	*	*	*	*	*	*	*	*	*	*	*
2D\	.	2D\	.	1B-	.	2f/	.	2ff\	.	1ryy	1ryy	1B-	2D\	2ff/	2f\	.	(>2D\	-e	.	.	2b-\	-lei-	.	.	(<2f/	-e	.	.	2ff\	-lei-	.	.
*	*	*	*	*	*	*	*	*2\right	*	*	*	*	*	*	*	*	*	*	*	*	*	*	*	*	*	*	*	*	*	*	*	*
4G\	.	4G\	.	.	.	2e-/	.	4b-\	.	.	.	.	4G\	4b-/	2e-\	.	4G\)	.	.	.	4b-\	-son,	.	.	4e-X/)	.	.	.	4b-\,	-son	.	.
4G-X\	.	4G-X\	.	.	.	.	.	4cc\	.	.	.	.	4G-X\	4cc/	.	.	4G-X\	e-	.	.	4b-\	e-	.	.	4e-/	e-	.	.	4cc\	e-	.	.
=27	=27	=27	=27	=27	=27	=27	=27	=27	=27	=27	=27	=27	=27	=27	=27	=27	=27	=27	=27	=27	=27	=27	=27	=27	=27	=27	=27	=27	=27	=27	=27	=27
1F	.	2F\	.	2.B-/	.	4f/	.	4dd\	.	1ryy	1ryy	4B-/	1F	4dd/	2f\	.	1F	-lei-	.	.	2.b-\	-le-	.	.	(<4f/	-le-	.	.	(>4dd\	-le-	.	.
.	.	.	.	.	.	4d/	.	4b-\	.	.	.	4d/	.	4b-/	.	.	.	.	.	.	.	.	.	.	4d/	.	.	.	4b-\	.	.	.
.	.	2FF/	.	.	.	4g/	.	4ee-\	.	.	.	4G/	.	4ee-/	4g\	.	.	.	.	.	.	.	.	.	4g/)	.	.	.	4ee-\)	.	.	.
.	.	.	.	4An/	.	(<8f/L	.	(>8dd\L	.	.	.	4A-/	.	8dd/L	8f\L	.	.	.	.	.	4an\	-i-	.	.	8f/L	-i-	.	.	8dd\L	-i-	.	.
.	.	.	.	.	.	8e-/J)	.	8cc\J)	.	.	.	.	.	8cc/J	8e-\J	.	.	.	.	.	.	.	.	.	8e-/J	.	.	.	8cc\J	.	.	.
=28	=28	=28	=28	=28	=28	=28	=28	=28	=28	=28	=28	=28	=28	=28	=28	=28	=28	=28	=28	=28	=28	=28	=28	=28	=28	=28	=28	=28	=28	=28	=28	=28
4BB-'/	.	4BB-'/	.	4B-'/	.	4d'/	.	4b-\|	.	1ryy	1ryy	4B-/	4BB-\	4b-/	4d\	.	4BB-/	-son	.	.	4b-\	-son	.	.	4d/	-son	.	.	4b-\	-son	.	.
!	!LO:DY:b:rj	!	!LO:DY:b:rj	!	!LO:DY:b:rj	!	!LO:DY:b:rj	!	!LO:DY:b:rj	!	!	!	!	!	!	!	!	!	!	!	!	!	!	!	!	!	!	!	!	!	!	!
!	!	!	!	!	!	!LO:TX:a:t=col 1mo	!	!LO:TX:b:i:t=marcato.	!	!	!	!	!	!	!	!	!	!	!	!	!	!	!	!	!	!	!	!	!	!	!	!
[>4B-\	ff	2B-^>\	f	2B-^</	f	2b-^\	f	2b-^>\	f	.	.	4r	4rEEyy	4r	4rcyy	.	4r	.	.	.	4r	.	.	.	4r	.	.	.	4r	.	.	.
8B-\]	.	.	.	.	.	.	.	.	.	.	.	2r	2rEEyy	2r	2rcyy	.	2r	.	.	.	2r	.	.	.	2r	.	.	.	2r	.	.	.
8r	.	.	.	.	.	.	.	.	.	.	.	.	.	.	.	.	.	.	.	.	.	.	.	.	.	.	.	.	.	.	.	.
4r	.	8.F\L	.	8.F/L	.	8.f/Lyy	.	8.f/L	.	.	.	.	.	.	.	.	.	.	.	.	.	.	.	.	.	.	.	.	.	.	.	.
.	.	16G-X\Jk	.	16G-X/Jk	.	16g-X/Jkyy	.	16g-X/Jk	.	.	.	.	.	.	.	f	.	.	.	.	.	.	.	.	.	.	.	.	.	.	.	.
*	*	*	*	*	*	*	*	*	*	*	*	*	*	*v	*v	*	*	*	*	*	*	*	*	*	*	*	*	*	*	*	*	*
=29	=29	=29	=29	=29	=29	=29	=29	=29	=29	=29	=29	=29	=29	=29	=29	=29	=29	=29	=29	=29	=29	=29	=29	=29	=29	=29	=29	=29	=29	=29	=29
!	!	!	!	!	!	!	!	!	!	!	!	!	!	!	!	!	!	!	!LO:DY:a	!	!	!	!LO:DY:a	!	!	!	!LO:DY:a	!	!	!	!LO:DY:a
4r	.	4G-X^>\	.	4G-X^</	.	4g-X^</yy	.	4g-X^</	.	1ryy	1ryy	4r	4rEEyy	4r	.	4r	.	.	ff	4r	.	.	ff	4r	.	.	ff	4r	.	.	ff
*	*	*	*	*	*	*	*	*	*	*	*	*	*	*	*	*2\right	*	*	*	*	*	*	*	*	*	*	*	*	*	*	*
2BB-/	.	8.F\L	.	8.F/L	.	8.f/Lyy	.	8.f/L	.	.	.	2B- 2F/	2BB-\	2b- 2f 2d/	.	2B-^^>\	Ky-	.	.	2dd^^>\	Ky-	.	.	2f^^>/	Ky-	.	.	2b-^^>\	Ky-	.	.
.	.	16D\Jk	.	16D/Jk	.	16d/Jkyy	.	16d/Jk	.	.	.	.	.	.	.	.	.	.	.	.	.	.	.	.	.	.	.	.	.	.	.
.	.	4BB-'/	.	4B-'/	.	4B-'/yy	.	4B-'/	.	.	.	.	.	.	.	.	.	.	.	.	.	.	.	.	.	.	.	.	.	.	.
*	*	*	*	*	*	*	*	*	*	*	*	*	*	*	*	*	*ij	*	*	*	*ij	*	*	*	*ij	*	*	*	*	*	*
4BB-'/	.	4BB-'/	.	4B-'/	.	4B-'/yy	.	4B-'/	.	.	.	4B- 4F/	4BB-\	4b- 4f 4d/	.	4B-\	-ri-	.	.	4dd\	-ri-	.	.	4f/	-ri-	.	.	4b-\	-ri-	.	.
=30	=30	=30	=30	=30	=30	=30	=30	=30	=30	=30	=30	=30	=30	=30	=30	=30	=30	=30	=30	=30	=30	=30	=30	=30	=30	=30	=30	=30	=30	=30	=30
4BB-'/	.	4BB-/	.	4B-'/	.	4B-'/yy	.	4B-'/	.	1ryy	1ryy	[>1B- [>1G-X 1E-	1BB-	[>1cc-X [>1g-X [<1e-	.	2.B-\	-e	.	.	2.ee-\	-e	.	.	2.g-X/	-e	.	.	2.cc-X\	-e	.	.
[>4B-^>\	.	2B-^>\	.	2B-^</	.	2b-^>\yy	.	2b-^>\	.	.	.	.	.	.	.	.	.	.	.	.	.	.	.	.	.	.	.	.	.	.	.
8B-\]	.	.	.	.	.	.	.	.	.	.	.	.	.	.	.	.	.	.	.	.	.	.	.	.	.	.	.	.	.	.	.
8r	.	.	.	.	.	.	.	.	.	.	.	.	.	.	.	.	.	.	.	.	.	.	.	.	.	.	.	.	.	.	.
4r	.	8.E-\L	.	8.E-/L	.	8.e-/Lyy	.	8.e-/L	.	.	.	.	.	.	.	4B-\	e-	.	.	4ee-\	e-	.	.	4g-/	e-	.	.	4cc-\	e-	.	.
.	.	16F\Jk	.	16F/Jk	.	16f/Jkyy	.	16f/Jk	.	.	.	.	.	.	.	.	.	.	.	.	.	.	.	.	.	.	.	.	.	.	.
=31	=31	=31	=31	=31	=31	=31	=31	=31	=31	=31	=31	=31	=31	=31	=31	=31	=31	=31	=31	=31	=31	=31	=31	=31	=31	=31	=31	=31	=31	=31	=31
4r	.	4G-X\	.	4G-X^</	.	4g-X^</yy	.	4g-X^</	.	1ryy	1ryy	8B-] 8G-] 8E-/	8BB-\	8cc-X] 8g-X] 8e-/]	.	8B-\	-lei-	.	.	8ee-\	-lei-	.	.	8g-X/	-lei-	.	.	8cc-X\	-lei-	.	.
.	.	.	.	.	.	.	.	.	.	.	.	8r	8rEEyy	8r	.	8r	.	.	.	8r	.	.	.	8r	.	.	.	8r	.	.	.
2BB-^</	.	8.E-\L	.	8.E-/L	.	8.e-/Lyy	.	8.e-/L	.	.	.	2e- 2B- 2G-y 2E-/	2BB-\	2cc- 2g- 2e-/	.	2B-^^>\	-son	.	.	2ee-^^>\	-son	.	.	2g-^^>/	-son	.	.	2cc-^^>\	-son	.	.
.	.	16BB-\Jk	.	16B-/Jk	.	16B-/Jkyy	.	16B-/Jk	.	.	.	.	.	.	.	.	.	.	.	.	.	.	.	.	.	.	.	.	.	.	.
.	.	4BB-'/	.	4B-'/	.	4B-/yy	.	4B-/	.	.	.	.	.	.	.	.	.	.	.	.	.	.	.	.	.	.	.	.	.	.	.
4BB-/	.	4BB-'/	.	4B-'/	.	4B-/yy	.	4B-/	.	.	.	4e- 4B- 4G- 4E-/	4BB-\	4ee- 4g- 4e-/	.	4B-\	e-	.	.	4ee-\	e-	.	.	4g-/	e-	.	.	4ee-\	e-	.	.
=32	=32	=32	=32	=32	=32	=32	=32	=32	=32	=32	=32	=32	=32	=32	=32	=32	=32	=32	=32	=32	=32	=32	=32	=32	=32	=32	=32	=32	=32	=32	=32
4BB-'/	.	4BB-/	.	4B-'/	.	4B-'/yy	.	4B-'/	.	1ryy	1ryy	1e- [1B- [1F	[1BB-	(>1ee- [<1a- [<1f	.	1B-^^>	-lei	.	.	1ee-^^>	-lei-	.	.	1a-^^>	-lei-	.	.	1ee-^^>	-lei-	.	.
*	*	*	*	*	*	*	*	*	*	*	*	*	*	*	*	*	*Xij	*	*	*	*Xij	*	*	*	*Xij	*	*	*	*	*	*
[4B-^>\	.	2B-^>\	.	2B-^</	.	2b-^>\yy	.	2b-^>\	.	.	.	.	.	.	.	.	.	.	.	.	.	.	.	.	.	.	.	.	.	.	.
8B-\]	.	.	.	.	.	.	.	.	.	.	.	.	.	.	.	.	.	.	.	.	.	.	.	.	.	.	.	.	.	.	.
8r	.	.	.	.	.	.	.	.	.	.	.	.	.	.	.	.	.	.	.	.	.	.	.	.	.	.	.	.	.	.	.
4r	.	8.F\L	.	8.F/L	.	8.f/Lyy	.	8.f/L	.	.	.	.	.	.	.	.	.	.	.	.	.	.	.	.	.	.	.	.	.	.	.
.	.	16G-X\Jk	.	16G-X/Jk	.	16g-X/Jkyy	.	16g-X/Jk	.	.	.	.	.	.	.	.	.	.	.	.	.	.	.	.	.	.	.	.	.	.	.
!!LO:PB:g=original
=33	=33	=33	=33	=33	=33	=33	=33	=33	=33	=33	=33	=33	=33	=33	=33	=33	=33	=33	=33	=33	=33	=33	=33	=33	=33	=33	=33	=33	=33	=33	=33
4r	.	4A-X\	.	4A-X/	.	4a-X/yy	.	4a-X/	.	1ryy	1ryy	8d 8B-] 8F/]	8BB-\]	8dd) 8a-] 8f/]	.	8B-\	son	.	.	8b-\	-son	.	.	8a-/	-son	.	.	8dd\	-son.	.	.
.	.	.	.	.	.	.	.	.	.	.	.	8r	8rEEyy	8r	.	8r	.	.	.	8r	.	.	.	8r	.	.	.	8r	.	.	.
*	*	*	*	*	*	*	*	*	*	*	*	*	*	*	*	*	*ij	*	*	*	*ij	*	*	*	*ij	*	*	*	*	*	*
2BB-^</	.	8.F\L	.	8.F/L	.	8.f/Lyy	.	8.f/L	.	.	.	2f 2d 2B- 2F/	2BB-\	2dd 2a-/	.	2B-^^>\	Chri-	.	.	2ff^^>\	Chri-	.	.	2b-^^>/	Chri-	.	.	2dd^^>\	Chri-	.	.
.	.	16BB-\Jk	.	16B-/Jk	.	16B-/Jkyy	.	16B-/Jk	.	.	.	.	.	.	.	.	.	.	.	.	.	.	.	.	.	.	.	.	.	.	.
.	.	4BB-'/	.	4B-'/	.	4B-/yy	.	4B-/	.	.	.	.	.	.	.	.	.	.	.	.	.	.	.	.	.	.	.	.	.	.	.
4BB-'/	.	4BB-'/	.	4B-'/	.	4B-/yy	.	4B-/	.	.	.	4f 4d 4B- 4F/	4BB-\	4ff 4a-/	.	4B-\	-ste	.	.	4dd\	-ste	.	.	4a-/	-ste	.	.	4ff\	-ste	.	.
=34	=34	=34	=34	=34	=34	=34	=34	=34	=34	=34	=34	=34	=34	=34	=34	=34	=34	=34	=34	=34	=34	=34	=34	=34	=34	=34	=34	=34	=34	=34	=34
4BB-'/	.	4BB-'/	.	4B-'/	.	4B-/yy	.	4B-/	.	1ryy	1ryy	1f [>1B- [>1G-X	1BB-	(>1ff [<1b- [<1g-X	.	1B-^^>	Chri-	.	.	1b-^^>	Chri-	.	.	1g-X^^>	Chri-	.	.	1ff^^>	Chri-	.	.
[>4B-^>\	.	2B-^>\	.	2B-^</	.	2b-^>\yy	.	2b-^>\	.	.	.	.	.	.	.	.	.	.	.	.	.	.	.	.	.	.	.	.	.	.	.
8B-\]	.	.	.	.	.	.	.	.	.	.	.	.	.	.	.	.	.	.	.	.	.	.	.	.	.	.	.	.	.	.	.
8r	.	.	.	.	.	.	.	.	.	.	.	.	.	.	.	.	.	.	.	.	.	.	.	.	.	.	.	.	.	.	.
4r	.	8.G-X\L	.	8.G-X/L	.	8.g-X/Lyy	.	8.g-X/L	.	.	.	.	.	.	.	.	.	.	.	.	.	.	.	.	.	.	.	.	.	.	.
.	.	16A-\Jk	.	16A-/Jk	.	16a-/Jkyy	.	16a-/Jk	.	.	.	.	.	.	.	.	.	.	.	.	.	.	.	.	.	.	.	.	.	.	.
=35	=35	=35	=35	=35	=35	=35	=35	=35	=35	=35	=35	=35	=35	=35	=35	=35	=35	=35	=35	=35	=35	=35	=35	=35	=35	=35	=35	=35	=35	=35	=35
*	*	*	*	*	*	*	*	*	*	*	*	*	*	*	*	*	*	*	*	*	*	*	*	*	*	*	*	*^	*	*	*
4r	.	4B-\	.	4B-/	.	4b-\yy	.	4b-\	.	1ryy	1ryy	8e- 8B-] 8G-X/]	8BB-\	8ee-) 8b-] 8g-X/]	.	8B-\	-ste,	.	.	8ee-\	-ste,	.	.	8g-X/	-ste,	.	.	8ee-\	2.rcyy	-ste,	.	.
.	.	.	.	.	.	.	.	.	.	.	.	8rc	8rEE	8r	.	8r	.	.	.	8r	.	.	.	8r	.	.	.	8r	.	.	.	.
4BB-'/	.	8.G-X\L	.	8.G-X/L	.	8.g-X/Lyy	.	8.g-X/L	.	.	.	4e- 4B- 4G-/	4BB-\	4b- 4g-/	.	4B-^^>\	Chri-	.	.	4ee-^^>\	Chri-	.	.	4b-^^>/	Chri-	.	.	4b-^^>\	.	Chri-	.	.
.	.	16E-\Jk	.	16E-/Jk	.	16e-/Jkyy	.	16e-/Jk	.	.	.	.	.	.	.	.	.	.	.	.	.	.	.	.	.	.	.	.	.	.	.	.
4BB-/	.	4BB-/	.	4B-/|	.	4B-/yy	.	4B-/	.	.	.	4e- 4B- 4G-/	4BB-\	4ee- 4b- 4g-/	.	4G-X^^>\	-ste	.	.	4ee-^^>\	-ste	.	.	4b-^^>/	-ste	.	.	4ee-^^>\	.	-ste	.	.
4BB-/	.	4B-'\	.	4e-\|	.	4b-'\	.	4gg-X'\	.	.	.	4e- 4B- 4G-/	4BB-\	4gg-X 4b- 4g-/	.	4E-^^>\	e-	.	.	4ee-^^>\	e-	.	.	4b-^^>/	e-	.	.	4gg-X^^>/	4ee-\	e-	.	.
*	*	*	*	*	*	*	*	*	*	*	*	*	*	*	*	*	*Xij	*	*	*	*Xij	*	*	*	*Xij	*	*	*	*	*	*	*
*	*	*	*	*	*	*	*	*	*	*	*	*	*	*	*	*	*	*	*	*	*	*	*	*	*	*	*	*v	*v	*	*	*
=36	=36	=36	=36	=36	=36	=36	=36	=36	=36	=36	=36	=36	=36	=36	=36	=36	=36	=36	=36	=36	=36	=36	=36	=36	=36	=36	=36	=36	=36	=36	=36
*	*	*	*	*	*	*	*	*	*	*	*	*	*	*^	*	*	*	*	*	*	*	*	*	*	*	*	*	*	*	*	*
*	*	*tremolo	*	*tremolo	*	*tremolo	*	*tremolo	*	*	*	*	*	*	*	*	*	*	*	*	*	*	*	*	*	*	*	*	*	*	*	*
!	!LO:DY:b:rj	!	!	!	!LO:DY:b:rj	!	!LO:DY:b:rj	!	!LO:DY:b:rj	!	!	!	!	!	!	!LO:DY:rj	!	!	!	!	!	!	!	!	!	!	!	!	!	!	!	!
[<1BB-	ff	32B-\LLL	.	32e-LLL 32c\	ff	32ccLLL 32e-X/	ff	32gg-XLLL 32an\	ff	1ryy	1ryy	[>2.e- 2.c/	[<1BB-	2gg-X 2ee- 2cc/	2.an\	ff	2.c^^>\	-le-	.	.	[>1ee-^^>	-lei-	.	.	2.an^^>/	-le-	.	.	(>2gg-X^^>\	-lei-	.	.
.	.	32B-\	.	32e- 32c\	.	32cc 32e-/	.	32gg- 32a\	.	.	.	.	.	.	.	.	.	.	.	.	.	.	.	.	.	.	.	.	.	.	.	.
.	.	32B-\	.	32e- 32c\	.	32cc 32e-/	.	32gg- 32a\	.	.	.	.	.	.	.	.	.	.	.	.	.	.	.	.	.	.	.	.	.	.	.	.
.	.	32B-\	.	32e- 32c\	.	32cc 32e-/	.	32gg- 32a\	.	.	.	.	.	.	.	.	.	.	.	.	.	.	.	.	.	.	.	.	.	.	.	.
.	.	32B-\	.	32e- 32c\	.	32cc 32e-/	.	32gg- 32a\	.	.	.	.	.	.	.	.	.	.	.	.	.	.	.	.	.	.	.	.	.	.	.	.
.	.	32B-\	.	32e- 32c\	.	32cc 32e-/	.	32gg- 32a\	.	.	.	.	.	.	.	.	.	.	.	.	.	.	.	.	.	.	.	.	.	.	.	.
.	.	32B-\	.	32e- 32c\	.	32cc 32e-/	.	32gg- 32a\	.	.	.	.	.	.	.	.	.	.	.	.	.	.	.	.	.	.	.	.	.	.	.	.
.	.	32B-\	.	32e- 32c\	.	32cc 32e-/	.	32gg- 32a\	.	.	.	.	.	.	.	.	.	.	.	.	.	.	.	.	.	.	.	.	.	.	.	.
.	.	32B-\	.	32e- 32c\	.	32cc 32e-/	.	32gg- 32a\	.	.	.	.	.	.	.	.	.	.	.	.	.	.	.	.	.	.	.	.	.	.	.	.
.	.	32B-\	.	32e- 32c\	.	32cc 32e-/	.	32gg- 32a\	.	.	.	.	.	.	.	.	.	.	.	.	.	.	.	.	.	.	.	.	.	.	.	.
.	.	32B-\	.	32e- 32c\	.	32cc 32e-/	.	32gg- 32a\	.	.	.	.	.	.	.	.	.	.	.	.	.	.	.	.	.	.	.	.	.	.	.	.
.	.	32B-\	.	32e- 32c\	.	32cc 32e-/	.	32gg- 32a\	.	.	.	.	.	.	.	.	.	.	.	.	.	.	.	.	.	.	.	.	.	.	.	.
.	.	32B-\	.	32e- 32c\	.	32cc 32e-/	.	32gg- 32a\	.	.	.	.	.	.	.	.	.	.	.	.	.	.	.	.	.	.	.	.	.	.	.	.
.	.	32B-\	.	32e- 32c\	.	32cc 32e-/	.	32gg- 32a\	.	.	.	.	.	.	.	.	.	.	.	.	.	.	.	.	.	.	.	.	.	.	.	.
.	.	32B-\	.	32e- 32c\	.	32cc 32e-/	.	32gg- 32a\	.	.	.	.	.	.	.	.	.	.	.	.	.	.	.	.	.	.	.	.	.	.	.	.
.	.	32B-\JJJ	.	32e- 32c\	.	32ccJJJ 32e-/	.	32gg-JJJ 32a\	.	.	.	.	.	.	.	.	.	.	.	.	.	.	.	.	.	.	.	.	.	.	.	.
.	.	32c\LLL	.	32e- 32c\	.	32an/LLL	.	32ff\LLL	.	.	.	.	.	[>2ff/	.	.	.	.	.	.	.	.	.	.	.	.	.	.	[<2ff\	.	.	.
.	.	32c\	.	32e- 32c\	.	32a/	.	32ff\	.	.	.	.	.	.	.	.	.	.	.	.	.	.	.	.	.	.	.	.	.	.	.	.
.	.	32c\	.	32e- 32c\	.	32a/	.	32ff\	.	.	.	.	.	.	.	.	.	.	.	.	.	.	.	.	.	.	.	.	.	.	.	.
.	.	32c\	.	32e- 32c\	.	32a/	.	32ff\	.	.	.	.	.	.	.	.	.	.	.	.	.	.	.	.	.	.	.	.	.	.	.	.
.	.	32c\	.	32e- 32c\	.	32a/	.	32ff\	.	.	.	.	.	.	.	.	.	.	.	.	.	.	.	.	.	.	.	.	.	.	.	.
.	.	32c\	.	32e- 32c\	.	32a/	.	32ff\	.	.	.	.	.	.	.	.	.	.	.	.	.	.	.	.	.	.	.	.	.	.	.	.
.	.	32c\	.	32e- 32c\	.	32a/	.	32ff\	.	.	.	.	.	.	.	.	.	.	.	.	.	.	.	.	.	.	.	.	.	.	.	.
.	.	32c\JJJ	.	32e-JJJ 32c\	.	32a/JJJ	.	32ff\	.	.	.	.	.	.	.	.	.	.	.	.	.	.	.	.	.	.	.	.	.	.	.	.
.	.	32c-X\LLL	.	32e-\LLL	.	32a-X/LLL	.	32ff\	.	.	.	4e-] 4c-X/	.	.	4a-X\	.	4c-X\	-i-	.	.	.	.	.	.	4a-X/	-i-	.	.	.	.	.	.
.	.	32c-\	.	32e-\	.	32a-/	.	32ff\	.	.	.	.	.	.	.	.	.	.	.	.	.	.	.	.	.	.	.	.	.	.	.	.
.	.	32c-\	.	32e-\	.	32a-/	.	32ff\	.	.	.	.	.	.	.	.	.	.	.	.	.	.	.	.	.	.	.	.	.	.	.	.
.	.	32c-\	.	32e-\	.	32a-/	.	32ff\	.	.	.	.	.	.	.	.	.	.	.	.	.	.	.	.	.	.	.	.	.	.	.	.
.	.	32c-\	.	32e-\	.	32a-/	.	32ff\	.	.	.	.	.	.	.	.	.	.	.	.	.	.	.	.	.	.	.	.	.	.	.	.
.	.	32c-\	.	32e-\	.	32a-/	.	32ff\	.	.	.	.	.	.	.	.	.	.	.	.	.	.	.	.	.	.	.	.	.	.	.	.
.	.	32c-\	.	32e-\	.	32a-/	.	32ff\	.	.	.	.	.	.	.	.	.	.	.	.	.	.	.	.	.	.	.	.	.	.	.	.
.	.	32c-\JJJ	.	32e-\JJJ	.	32a-/JJJ	.	32ff\JJJ	.	.	.	.	.	.	.	.	.	.	.	.	.	.	.	.	.	.	.	.	.	.	.	.
=37	=37	=37	=37	=37	=37	=37	=37	=37	=37	=37	=37	=37	=37	=37	=37	=37	=37	=37	=37	=37	=37	=37	=37	=37	=37	=37	=37	=37	=37	=37	=37	=37
1BB-_<	.	32B-\LLL	.	32B-/LLL	.	32g/LLL	.	32ff\LLL	.	1ryy	1ryy	2.B-/	1BB-]	4ff/]	2.gn\	.	4B-\	-son	.	.	2ee-\]	.	.	.	2.g/	-son,	.	.	4ff\]	.	.	.
.	.	32B-\	.	32B-/	.	32g/	.	32ff\	.	.	.	.	.	.	.	.	.	.	.	.	.	.	.	.	.	.	.	.	.	.	.	.
.	.	32B-\	.	32B-/	.	32g/	.	32ff\	.	.	.	.	.	.	.	.	.	.	.	.	.	.	.	.	.	.	.	.	.	.	.	.
.	.	32B-\	.	32B-/	.	32g/	.	32ff\	.	.	.	.	.	.	.	.	.	.	.	.	.	.	.	.	.	.	.	.	.	.	.	.
.	.	32B-\	.	32B-/	.	32g/	.	32ff\	.	.	.	.	.	.	.	.	.	.	.	.	.	.	.	.	.	.	.	.	.	.	.	.
.	.	32B-\	.	32B-/	.	32g/	.	32ff\	.	.	.	.	.	.	.	.	.	.	.	.	.	.	.	.	.	.	.	.	.	.	.	.
.	.	32B-\	.	32B-/	.	32g/	.	32ff\	.	.	.	.	.	.	.	.	.	.	.	.	.	.	.	.	.	.	.	.	.	.	.	.
.	.	32B-\	.	32B-/	.	32g/	.	32ff\JJJ	.	.	.	.	.	.	.	.	.	.	.	.	.	.	.	.	.	.	.	.	.	.	.	.
.	.	32B-\	.	32B-/	.	32g/	.	32b-\LLL	.	.	.	.	.	4dd/	.	.	4r	.	.	.	.	.	.	.	.	.	.	.	4dd\	.	.	.
.	.	32B-\	.	32B-/	.	32g/	.	32b-\	.	.	.	.	.	.	.	.	.	.	.	.	.	.	.	.	.	.	.	.	.	.	.	.
.	.	32B-\	.	32B-/	.	32g/	.	32b-\	.	.	.	.	.	.	.	.	.	.	.	.	.	.	.	.	.	.	.	.	.	.	.	.
.	.	32B-\	.	32B-/	.	32g/	.	32b-\	.	.	.	.	.	.	.	.	.	.	.	.	.	.	.	.	.	.	.	.	.	.	.	.
.	.	32B-\	.	32B-/	.	32g/	.	32b-\	.	.	.	.	.	.	.	.	.	.	.	.	.	.	.	.	.	.	.	.	.	.	.	.
.	.	32B-\	.	32B-/	.	32g/	.	32b-\	.	.	.	.	.	.	.	.	.	.	.	.	.	.	.	.	.	.	.	.	.	.	.	.
.	.	32B-\	.	32B-/	.	32g/	.	32b-\	.	.	.	.	.	.	.	.	.	.	.	.	.	.	.	.	.	.	.	.	.	.	.	.
.	.	32B-\JJJ	.	32B-/	.	32g/	.	32b-\	.	.	.	.	.	.	.	.	.	.	.	.	.	.	.	.	.	.	.	.	.	.	.	.
.	.	4BB-/	.	32B-/	.	32g/	.	32b-\	.	.	.	.	.	[>2ee-/	.	.	2BB-/	e-	.	.	4b-/	-son	.	.	.	.	.	.	[<2ee-\	.	.	.
.	.	.	.	32B-/	.	32g/	.	32b-\	.	.	.	.	.	.	.	.	.	.	.	.	.	.	.	.	.	.	.	.	.	.	.	.
.	.	.	.	32B-/	.	32g/	.	32b-\	.	.	.	.	.	.	.	.	.	.	.	.	.	.	.	.	.	.	.	.	.	.	.	.
.	.	.	.	32B-/	.	32g/	.	32b-\	.	.	.	.	.	.	.	.	.	.	.	.	.	.	.	.	.	.	.	.	.	.	.	.
.	.	.	.	32B-/	.	32g/	.	32b-\	.	.	.	.	.	.	.	.	.	.	.	.	.	.	.	.	.	.	.	.	.	.	.	.
.	.	.	.	32B-/	.	32g/	.	32b-\	.	.	.	.	.	.	.	.	.	.	.	.	.	.	.	.	.	.	.	.	.	.	.	.
.	.	.	.	32B-/	.	32g/	.	32b-\	.	.	.	.	.	.	.	.	.	.	.	.	.	.	.	.	.	.	.	.	.	.	.	.
.	.	.	.	32B-/JJJ	.	32g/JJJ	.	32b-\JJJ	.	.	.	.	.	.	.	.	.	.	.	.	.	.	.	.	.	.	.	.	.	.	.	.
.	.	4BB-/	.	32An/LLL	.	32g-X/LLL	.	32ee-\LLL	.	.	.	4An/	.	.	4g-X\	.	.	.	.	.	4an/	e-	.	.	4g-X/	e-	.	.	.	.	.	.
.	.	.	.	32A/	.	32g-/	.	32ee-\	.	.	.	.	.	.	.	.	.	.	.	.	.	.	.	.	.	.	.	.	.	.	.	.
.	.	.	.	32A/	.	32g-/	.	32ee-\	.	.	.	.	.	.	.	.	.	.	.	.	.	.	.	.	.	.	.	.	.	.	.	.
.	.	.	.	32A/	.	32g-/	.	32ee-\	.	.	.	.	.	.	.	.	.	.	.	.	.	.	.	.	.	.	.	.	.	.	.	.
.	.	.	.	32A/	.	32g-/	.	32ee-\	.	.	.	.	.	.	.	.	.	.	.	.	.	.	.	.	.	.	.	.	.	.	.	.
.	.	.	.	32A/	.	32g-/	.	32ee-\	.	.	.	.	.	.	.	.	.	.	.	.	.	.	.	.	.	.	.	.	.	.	.	.
.	.	.	.	32A/	.	32g-/	.	32ee-\	.	.	.	.	.	.	.	.	.	.	.	.	.	.	.	.	.	.	.	.	.	.	.	.
.	.	.	.	32A/JJJ	.	32g-/JJJ	.	32ee-\JJJ	.	.	.	.	.	.	.	.	.	.	.	.	.	.	.	.	.	.	.	.	.	.	.	.
=38	=38	=38	=38	=38	=38	=38	=38	=38	=38	=38	=38	=38	=38	=38	=38	=38	=38	=38	=38	=38	=38	=38	=38	=38	=38	=38	=38	=38	=38	=38	=38	=38
!	!	!	!LO:HP:b:t=diminuendo.	!	!LO:HP:b:t=diminuendo.	!	!	!	!	!	!	!	!	!	!	!	!	!	!	!	!	!	!	!	!	!	!	!	!	!	!	!
2BB-/]	.	2BB-/	>	32A-X/LLL	>	32f/LLL	.	4ee-\	.	1ryy	1ryy	[>1A-X	2BB-\	4ee-/]	[<1f	f	(<2BB-/	-lei-	.	.	[>1a-X	-lei-	.	.	[<1f	-lei-	.	.	4ee-\])	.	.	.
!	!	!	!	!	!	!	!LO:HP:b:t=diminuendo.	!	!	!	!	!	!	!	!	!	!	!	!	!	!	!	!	!	!	!	!	!	!	!	!	!
.	.	.	.	32A-/	.	32f/	>	.	.	.	.	.	.	.	.	.	.	.	.	.	.	.	.	.	.	.	.	.	.	.	.	.
.	.	.	.	32A-/	.	32f/	.	.	.	.	.	.	.	.	.	.	.	.	.	.	.	.	.	.	.	.	.	.	.	.	.	.
.	.	.	.	32A-/	.	32f/	.	.	.	.	.	.	.	.	.	.	.	.	.	.	.	.	.	.	.	.	.	.	.	.	.	.
.	.	.	.	32A-/	.	32f/	.	.	.	.	.	.	.	.	.	.	.	.	.	.	.	.	.	.	.	.	.	.	.	.	.	.
.	.	.	.	32A-/	.	32f/	.	.	.	.	.	.	.	.	.	.	.	.	.	.	.	.	.	.	.	.	.	.	.	.	.	.
.	.	.	.	32A-/	.	32f/	.	.	.	.	.	.	.	.	.	.	.	.	.	.	.	.	.	.	.	.	.	.	.	.	.	.
.	.	.	.	32A-/	.	32f/	.	.	.	.	.	.	.	.	.	.	.	.	.	.	.	.	.	.	.	.	.	.	.	.	.	.
!	!	!	!	!	!	!	!	!	!LO:HP:b:t=diminuendo.	!	!	!	!	!	!	!	!	!	!	!	!	!	!	!	!	!	!	!	!	!	!	!
.	.	.	.	32A-/	.	32f/	.	2dd\	>	.	.	.	.	2dd/	.	.	.	.	.	.	.	.	.	.	.	.	.	.	2dd\,	-son	.	>
.	.	.	.	32A-/	.	32f/	.	.	.	.	.	.	.	.	.	.	.	.	.	.	.	.	.	.	.	.	.	.	.	.	.	.
.	.	.	.	32A-/	.	32f/	.	.	.	.	.	.	.	.	.	.	.	.	.	.	.	.	.	.	.	.	.	.	.	.	.	.
.	.	.	.	32A-/	.	32f/	.	.	.	.	.	.	.	.	.	.	.	.	.	.	.	.	.	.	.	.	.	.	.	.	.	.
.	.	.	.	32A-/	.	32f/	.	.	.	.	.	.	.	.	.	.	.	.	.	.	.	.	.	.	.	.	.	.	.	.	.	.
.	.	.	.	32A-/	.	32f/	.	.	.	.	.	.	.	.	.	.	.	.	.	.	.	.	.	.	.	.	.	.	.	.	.	.
!	!	!	!	!	!	!	!	!	!	!	!	!	!	!	!	!	!	!	!	!	!	!	!	!	!	!	!	!LO:HP:t=diminuendo.	!	!	!	!
.	.	.	.	32A-/	.	32f/	.	.	.	.	.	.	.	.	.	.	.	.	.	.	.	.	.	.	.	.	.	>	.	.	.	.
.	.	.	.	32A-/	.	32f/	.	.	.	.	.	.	.	.	.	.	.	.	.	.	.	.	.	.	.	.	.	.	.	.	.	.
!	!	!	!	!	!	!	!	!	!	!	!	!	!	!	!	!	!	!	!	!LO:DY:a	!	!	!	!	!	!	!	!	!	!	!	!
2BBn/	.	2BBn/	.	32A-/	.	32f/	.	.	.	.	.	.	2BBn\	.	.	.	2BBn/	.	.	>	.	.	.	.	.	.	.	.	.	.	.	.
.	.	.	.	32A-/	.	32f/	.	.	.	.	.	.	.	.	.	.	.	.	.	.	.	.	.	.	.	.	.	.	.	.	.	.
.	.	.	.	32A-/	.	32f/	.	.	.	.	.	.	.	.	.	.	.	.	.	.	.	.	.	.	.	.	.	.	.	.	.	.
.	.	.	.	32A-/	.	32f/	.	.	.	.	.	.	.	.	.	.	.	.	.	.	.	.	.	.	.	.	.	.	.	.	.	.
.	.	.	.	32A-/	.	32f/	.	.	.	.	.	.	.	.	.	.	.	.	.	.	.	.	.	.	.	.	.	.	.	.	.	.
.	.	.	.	32A-/	.	32f/	.	.	.	.	.	.	.	.	.	.	.	.	.	.	.	.	.	.	.	.	.	.	.	.	.	.
.	.	.	.	32A-/	.	32f/	.	.	.	.	.	.	.	.	.	.	.	.	.	.	.	.	.	.	.	.	.	.	.	.	.	.
.	.	.	.	32A-/	.	32f/	.	.	.	.	.	.	.	.	.	.	.	.	.	.	.	.	.	.	.	.	.	.	.	.	.	.
.	.	.	.	32A-/	.	32f/	.	[>4dd-X\	.	.	.	.	.	[>4dd-X/	.	.	.	.	.	.	.	.	.	.	.	.	.	.	[>4dd-X\	e-	.	.
.	.	.	.	32A-/	.	32f/	.	.	.	.	.	.	.	.	.	.	.	.	.	.	.	.	.	.	.	.	.	.	.	.	.	.
.	.	.	.	32A-/	.	32f/	.	.	.	.	.	.	.	.	.	.	.	.	.	.	.	.	.	.	.	.	.	.	.	.	.	.
.	.	.	.	32A-/	.	32f/	.	.	.	.	.	.	.	.	.	.	.	.	.	.	.	.	.	.	.	.	.	.	.	.	.	.
.	.	.	.	32A-/	.	32f/	.	.	.	.	.	.	.	.	.	.	.	.	.	.	.	.	.	.	.	.	.	.	.	.	.	.
.	.	.	.	32A-/	.	32f/	.	.	.	.	.	.	.	.	.	.	.	.	.	.	.	.	.	.	.	.	.	.	.	.	.	.
.	.	.	.	32A-/	.	32f/	.	.	.	.	.	.	.	.	.	.	.	.	.	.	.	.	.	.	.	.	.	.	.	.	.	.
.	.	.	.	32A-/JJJ	.	32f/JJJ	.	.	.	.	.	.	.	.	.	.	.	.	.	.	.	.	.	.	.	.	.	.	.	.	.	.
=39	=39	=39	=39	=39	=39	=39	=39	=39	=39	=39	=39	=39	=39	=39	=39	=39	=39	=39	=39	=39	=39	=39	=39	=39	=39	=39	=39	=39	=39	=39	=39	=39
!	!	!	!	!	!	!	!	!	!	!	!	!	!	!	!	!	!	!	!	!	!	!	!	!LO:DY:a	!	!	!	!LO:DY:a	!	!	!	!
2C/	.	2C/	.	4A-X/	.	32f/LLL	.	4dd-\]	.	1ryy	1ryy	(1A-]	2C\	4dd-/]	2.f\]	.	2C/)	.	.	.	2a-/]	.	.	>	2.f/]	.	.	.	4dd-\]	.	.	.
.	.	.	.	.	.	32f/	.	.	.	.	.	.	.	.	.	.	.	.	.	.	.	.	.	.	.	.	.	.	.	.	.	.
.	.	.	.	.	.	32f/	.	.	.	.	.	.	.	.	.	.	.	.	.	.	.	.	.	.	.	.	.	.	.	.	.	.
.	.	.	.	.	.	32f/	.	.	.	.	.	.	.	.	.	.	.	.	.	.	.	.	.	.	.	.	.	.	.	.	.	.
.	.	.	.	.	.	32f/	.	.	.	.	.	.	.	.	.	.	.	.	.	.	.	.	.	.	.	.	.	.	.	.	.	.
.	.	.	.	.	.	32f/	.	.	.	.	.	.	.	.	.	.	.	.	.	.	.	.	.	.	.	.	.	.	.	.	.	.
.	.	.	.	.	.	32f/	.	.	.	.	.	.	.	.	.	.	.	.	.	.	.	.	.	.	.	.	.	.	.	.	.	.
.	.	.	.	.	.	32f/	.	.	.	.	.	.	.	.	.	.	.	.	.	.	.	.	.	.	.	.	.	.	.	.	.	.
.	.	.	.	2.A-/	.	32f/	.	2cc\	.	.	.	.	.	2cc/	.	.	.	.	.	.	.	.	.	.	.	.	.	.	2cc\	-lei-	.	.
.	.	.	.	.	.	32f/	.	.	.	.	.	.	.	.	.	.	.	.	.	.	.	.	.	.	.	.	.	.	.	.	.	.
.	.	.	.	.	.	32f/	.	.	.	.	.	.	.	.	.	.	.	.	.	.	.	.	.	.	.	.	.	.	.	.	.	.
.	.	.	.	.	.	32f/	.	.	.	.	.	.	.	.	.	.	.	.	.	.	.	.	.	.	.	.	.	.	.	.	.	.
.	.	.	.	.	.	32f/	.	.	.	.	.	.	.	.	.	.	.	.	.	.	.	.	.	.	.	.	.	.	.	.	.	.
.	.	.	.	.	.	32f/	.	.	.	.	.	.	.	.	.	.	.	.	.	.	.	.	.	.	.	.	.	.	.	.	.	.
.	.	.	.	.	.	32f/	.	.	.	.	.	.	.	.	.	.	.	.	.	.	.	.	.	.	.	.	.	.	.	.	.	.
.	.	.	.	.	.	32f/JJJ	.	.	.	.	.	.	.	.	.	.	.	.	.	.	.	.	.	.	.	.	.	.	.	.	.	.
4D-X\	.	2D-X/	.	.	.	4f/	.	.	.	.	.	.	4D-X\	.	.	.	2D-X\	-son	.	.	2a-/	-son	.	]	.	.	.	.	.	.	.	.
4r	.	.	.	.	.	(<8e-/L	.	4cc-X\	.	.	.	.	4rAA	4cc-X/	8e-\L	.	.	.	.	.	.	.	.	.	8e-/L	-son	.	.	4cc-X\	-son,	.	.
.	.	.	.	.	.	8d-X/J)	.	.	.	.	.	.	.	.	[>8d-X\J	.	.	.	.	.	.	.	.	.	8d-X/J,	.	.	.	.	.	.	.
*	*	*	*	*	*	*	*	*	*	*	*	*v	*v	*	*	*	*	*	*	*	*	*	*	*	*	*	*	*	*	*	*	*
=40	=40	=40	=40	=40	=40	=40	=40	=40	=40	=40	=40	=40	=40	=40	=40	=40	=40	=40	=40	=40	=40	=40	=40	=40	=40	=40	=40	=40	=40	=40	=40
!	!	!	!LO:DY:b:rj	!	!LO:DY:b:rj	!	!	!	!	!	!	!	!	!	!	!	!	!	!LO:DY:a:rj:t=pp.	!	!	!	!LO:DY:a:rj:t=pp.	!	!	!	!LO:DY:a:t=pp.	!	!	!	!LO:DY:a:t=pp.
1r	.	[>1G-X	pp	(<2B-/	pp	(<2d-X/	.	(>2b-\	.	1ryy	1ryy	4G-X/)	4b-/	4d-\]	.	2G-X\	Chri-	.	pp	2b-\	Chri-	.	pp	2d-X/	Chri-	.	pp	2b-\	Chri-	.	pp
.	.	.	.	.	.	.	.	.	.	.	.	4r	4rb	4rcyy	.	.	.	.	.	.	.	.	.	.	.	.	.	.	.	.	.
.	.	.	.	4B-'/	.	4dn'/	.	4b-'\	.	.	.	2r	2rb	2rcyy	.	4G-\	-ste	.	.	4b-\	-ste	.	.	4dn/,	-ste	.	.	4b-\	-ste	.	.
.	.	.	.	4B-'/)	.	4d'/	.	4b-'\)	.	.	.	.	.	.	.	4G-\	e-	.	.	4b-\	e-	.	.	4d/	e-	.	.	4b-\	e-	.	.
*	*	*	*	*	*	*	*	*	*	*	*	*	*v	*v	*	*	*	*	*	*	*	*	*	*	*	*	*	*	*	*	*
=41	=41	=41	=41	=41	=41	=41	=41	=41	=41	=41	=41	=41	=41	=41	=41	=41	=41	=41	=41	=41	=41	=41	=41	=41	=41	=41	=41	=41	=41	=41
1r	.	2.G-\]	.	1An	.	[<1e-)	.	4.cc-X\	.	1ryy	1ryy	1r	1r	.	2.G-X\	-lei-	.	.	[>1an	-lei-	.	.	[<1e-X	-lei-	.	.	4.cc-X\	-lei-	.	.
.	.	.	.	.	.	.	.	8ccn\	.	.	.	.	.	.	.	.	.	.	.	.	.	.	.	.	.	.	8ccn\	-son	.	.
.	.	.	.	.	.	.	.	2cc\	.	.	.	.	.	.	.	.	.	.	.	.	.	.	.	.	.	.	2cc\,	.	.	.
.	.	8E-\L	.	.	.	.	.	.	.	.	.	.	.	.	8E-\L	-son	.	.	.	.	.	.	.	.	.	.	.	.	.	.
.	.	8F\J	.	.	.	.	.	.	.	.	.	.	.	.	8F\J,	.	.	.	.	.	.	.	.	.	.	.	.	.	.	.
!!LO:PB:g=original
=42	=42	=42	=42	=42	=42	=42	=42	=42	=42	=42	=42	=42	=42	=42	=42	=42	=42	=42	=42	=42	=42	=42	=42	=42	=42	=42	=42	=42	=42	=42
1r	.	2G-X^>\	.	1An	.	4e-/]	.	4.cc\	.	1ryy	1ryy	1r	1r	.	2G-X^>\	Chri-	.	.	(<1a]	.	.	.	(<2e-/]	.	.	.	4.cc\	Ky-	.	.
.	.	.	.	.	.	4e-/	.	.	.	.	.	.	.	.	.	.	.	.	.	.	.	.	.	.	.	.	.	.	.	.
.	.	.	.	.	.	.	.	8cc\	.	.	.	.	.	.	.	.	.	.	.	.	.	.	.	.	.	.	8cc\	-ri-	.	.
.	.	4F\	.	.	.	[<2f/	.	4dd\	.	.	.	.	.	.	4F\	-ste	.	.	.	.	.	.	[<2f/)	.	.	.	4ddn\	-e	.	.
.	.	[>4E-\	.	.	.	.	.	4cc\	.	.	.	.	.	.	4E-\	e-	.	.	.	.	.	.	.	.	.	.	4cc\	e-	.	.
=43	=43	=43	=43	=43	=43	=43	=43	=43	=43	=43	=43	=43	=43	=43	=43	=43	=43	=43	=43	=43	=43	=43	=43	=43	=43	=43	=43	=43	=43	=43
1r	.	4E-\]	.	2.A-X/	.	2f/_<	.	2cc\	.	1ryy	1ryy	1r	1r	.	4E-\	-le-	.	.	2a-X/)	.	.	.	2f/]	.	.	.	2cc\	-lei-	.	.
.	.	(>8F\L	.	.	.	.	.	.	.	.	.	.	.	.	8F\L	-i-	.	.	.	.	.	.	.	.	.	.	.	.	.	.
.	.	8E-\J	.	.	.	.	.	.	.	.	.	.	.	.	8E-\J	.	.	.	.	.	.	.	.	.	.	.	.	.	.	.
.	.	8D\L	.	.	.	8f/]	.	8b-\	.	.	.	.	.	.	8D\L	-son,	.	.	8b-/	-son,	.	.	8f/	-son,	.	.	8b-\	-son	.	.
.	.	8F\J)	.	.	.	8r	.	8r	.	.	.	.	.	.	8F\J	.	.	.	8r	.	.	.	8r	.	.	.	8r	.	.	.
!	!	!	!	!	!	!	!	!	!	!	!	!	!	!	!	!	!	!LO:DY:a	!	!	!	!LO:DY:a	!	!	!	!LO:DY:a	!	!	!	!LO:DY:a
.	.	4A-\	.	4B-/	.	4b-\	.	4b-\	.	.	.	.	.	p	4A-\	e-	.	mf	4b-\	e-	.	mf	4B-/	e-	.	mf	4b-\	e-	.	mf
=44	=44	=44	=44	=44	=44	=44	=44	=44	=44	=44	=44	=44	=44	=44	=44	=44	=44	=44	=44	=44	=44	=44	=44	=44	=44	=44	=44	=44	=44	=44
*	*	*	*	*	*	*	*	*	*	*	*	*^	*^	*	*	*	*	*	*	*	*	*	*	*	*	*	*	*	*	*
!	!LO:DY:b:rj	!	!	!	!	!	!	!	!	!	!	!	!	!	!	!	!	!	!	!	!	!	!	!	!	!	!	!	!	!	!	!
1G	p	2BB-/	.	(<2E-/	.	(<2e-/	.	(<2B-/	.	1ryy	1ryy	1B- 1G	1rGG	(>2ee-/	2.e-\	.	2G\	-lei-	.	.	2b-\	-lei-	.	.	2e-/	-lei-	.	.	2ee-\	-lei-	.	.
.	.	2G\	.	4G/)	.	4B-/)	.	4e-/)	.	.	.	.	.	4b-/	.	.	8G 8GG/	-son,	.	.	8b-\	-son	.	.	8e-/	-son	.	.	8b-\	-son	.	.
.	.	.	.	.	.	.	.	.	.	.	.	.	.	.	.	.	8r	.	.	.	8r	.	.	.	8r	.	.	.	8r	.	.	.
*	*	*	*	*	*	*	*	*	*	*	*	*	*	*	*	*	*	*ij	*	*	*	*ij	*	*	*	*ij	*	*	*	*	*	*
!	!	!	!	!	!	!	!	!	!	!	!	!	!	!	!	!	!	!	!	!LO:DY:a	!	!	!	!LO:DY:a	!	!	!	!LO:HP:a	!	!	!	!LO:HP:a
.	.	.	.	4B-/	.	4d-X/	.	4en/	.	.	.	.	.	4dd-X/	4en\	.	(>4G\	Ky-	.	>	(>4b-\	Ky-	.	>	(<4en/	Ky-	.	>	(>4dd-X\	Ky-	.	>
=45	=45	=45	=45	=45	=45	=45	=45	=45	=45	=45	=45	=45	=45	=45	=45	=45	=45	=45	=45	=45	=45	=45	=45	=45	=45	=45	=45	=45	=45	=45	=45	=45
*	*	*	*	*	*	*	*	*	*	*	*	*	*^	*	*	*	*	*	*	*	*	*	*	*	*	*	*	*	*	*	*	*
(>4A-\	.	(>4A-\	.	(>4A-/	.	(<4c/	.	(<4f/	.	1ryy	1ryy	4c 4A-\	4rEEyy	1rEE	4cc/	4f\	.	4A-\)	.	.	.	4cc\)	.	.	.	4f/)	.	.	.	4cc\)	.	.	.
4En\	.	4En\	.	4d-X\	.	4B-/	.	4g/	.	.	.	4d-X/	4En\	.	4b-/	4g\	.	4En\	-ri-	.	.	4dd-X\	-ri-	.	.	4g/	-ri-	.	.	4b-/	-ri-	.	.
4F\)	.	4F\)	.	4c\)	.	4A-/)	.	4a-/)	.	.	.	4c/	4F\	.	4a-/	4a-\	.	4F\	-e	.	.	4cc\	-e	.	.	4f/	-e	.	.	4a-/	-e	.	.
4A-\	.	(>8B-\L	.	4r	.	4c/	.	(<8g/L	.	.	.	8B-/L	4rAA	.	8g/L	4rcyy	.	4AA-	e-	.	]	8b-/L	e-	.	]	4c/	e-	.	]	8g/L	e-	.	]
*	*	*	*	*	*	*	*	*	*	*	*	*	*	*	*	*	*	*	*	*	*	*	*	*	*	*	*	*	*	*	*	*	*
.	.	8A-\J)	.	.	.	.	.	8f/J)	.	.	.	8A-/J	.	.	8f/J	.	.	.	.	.	.	8a-/J	.	.	.	.	.	.	.	8f/J	.	.	.
*	*	*	*	*	*	*	*	*	*	*	*	*	*	*	*v	*v	*	*	*	*	*	*	*	*	*	*	*	*	*	*	*	*	*
=46	=46	=46	=46	=46	=46	=46	=46	=46	=46	=46	=46	=46	=46	=46	=46	=46	=46	=46	=46	=46	=46	=46	=46	=46	=46	=46	=46	=46	=46	=46	=46	=46
!	!	!	!	!	!	!	!	!	!	!	!	!	!	!	!	!	!	!	!	!	!	!	!	!	!	!	!	!LO:DY:a	!	!	!	!
1B-	.	2G\	.	2E-/	.	[<1B-	.	4b-/	.	1ryy	1ryy	2G/	1BB-	1rEE	2e-/	.	2.BB-/	-lei-	.	p	(<2g/	-lei-	.	p	(<2e-/	-lei-	.	p	[<2.b-/	-lei-	.	p
*	*	*	*	*	*	*	*	*	*	*	*	*	*	*	*	*	*	*Xij	*	*	*	*Xij	*	*	*	*Xij	*	*	*	*	*	*
.	.	.	.	.	.	.	.	(<8B-/L	.	.	.	.	.	.	.	.	.	.	.	.	.	.	.	.	.	.	.	.	.	.	.	.
.	.	.	.	.	.	.	.	8c/J)	.	.	.	.	.	.	.	.	.	.	.	.	.	.	.	.	.	.	.	.	.	.	.	.
.	.	2F\	.	2F/	.	.	.	4d/	.	.	.	[<4F/	.	.	2f 2d/	.	.	.	.	.	2f/)	.	.	.	2d/)	.	.	.	.	.	.	.
.	.	.	.	.	.	.	.	(<8f/L	.	.	.	4B- 4F/]	.	.	.	.	4BB-/	.	.	.	.	.	.	.	.	.	.	.	8b-/L]	.	.	.
.	.	.	.	.	.	.	.	8a-/J)	.	.	.	.	.	.	.	.	.	.	.	.	.	.	.	.	.	.	.	.	8a-/J	.	.	.
*	*	*	*	*	*	*	*	*	*	*	*	*	*v	*v	*	*	*	*	*	*	*	*	*	*	*	*	*	*	*	*	*	*
=47	=47	=47	=47	=47	=47	=47	=47	=47	=47	=47	=47	=47	=47	=47	=47	=47	=47	=47	=47	=47	=47	=47	=47	=47	=47	=47	=47	=47	=47	=47	=47
!	!	!	!	!	!	!	!	!	!	!	!	!LO:TX:b:i:t=ped.	!	!	!	!	!	!	!	!	!	!	!	!	!	!	!	!	!	!	!
4E-\	.	[>1E-	.	2E-/	.	2B-/]	.	4g/	.	1ryy	1ryy	[<1B- [<1G	[<1EE-	[>1g [>1e-)	.	4E-\	-son	.	.	4e-/	-son	.	.	4e-/	-son	.	.	4g/	-son	.	.
!LO:TX:b:i:t=pizzi.	!	!	!	!	!	!	!	!LO:TX:b:i:t=con espreſsione	!	!	!	!	!	!	!	!	!	!	!	!	!	!	!	!	!	!	!	!	!	!	!
4r	.	.	.	.	.	.	.	2gg\	.	.	.	.	.	.	.	4r	.	.	.	4r	.	.	.	4r	.	.	.	4r	.	.	.
4E-\	.	.	.	2r	.	2r	.	.	.	.	.	.	.	.	.	2r	.	.	.	2r	.	.	.	2r	.	.	.	2r	.	.	.
4r	.	.	.	.	.	.	.	8.dd\L	.	.	.	.	.	.	.	.	.	.	.	.	.	.	.	.	.	.	.	.	.	.	.
.	.	.	.	.	.	.	.	16ee-\Jk	.	.	.	.	.	.	.	.	.	.	.	.	.	.	.	.	.	.	.	.	.	.	.
=48	=48	=48	=48	=48	=48	=48	=48	=48	=48	=48	=48	=48	=48	=48	=48	=48	=48	=48	=48	=48	=48	=48	=48	=48	=48	=48	=48	=48	=48	=48	=48
!	!	!	!	!	!	!	!	!	!	!	!	!	!	!	!	!	!	!	!LO:DY:a:rj:t=ppp.	!	!	!	!LO:DY:a:rj:t=ppp.	!	!	!	!LO:DY:a:rj:t=ppp.	!	!	!	!LO:DY:a:t=ppp.
1r	.	1E-_>	.	1r	.	1r	.	4ee-\	.	1ryy	1ryy	1B-] 1G]	1EE-_<	1g] 1e-]	.	4.E-\	Ky-	.	ppp	4.e-/	Ky-	.	ppp	4.e-/	Ky-	.	ppp	4.e-/	Ky-	.	ppp
.	.	.	.	.	.	.	.	(<8g/L	.	.	.	.	.	.	.	.	.	.	.	.	.	.	.	.	.	.	.	.	.	.	.
*	*	*	*	*	*	*	*	*	*	*	*	*	*	*	*	*	*ij	*	*	*	*ij	*	*	*	*ij	*	*	*	*	*	*
.	.	.	.	.	.	.	.	8a-/J)	.	.	.	.	.	.	.	8E-\	-ri-	.	.	8e-/	-ri-	.	.	8e-/	-ri-	.	.	8e-/	-ri-	.	.
.	.	.	.	.	.	.	.	4b-\	.	.	.	.	.	.	.	4E-\	-e	.	.	4e-/	-e	.	.	4e-/	-e	.	.	4e-/	-e	.	.
.	.	.	.	.	.	.	.	(>8dd\L	.	.	.	.	.	.	.	4E-\	e-	.	.	4e-/	e-	.	.	4e-/	e-	.	.	4e-/	e-	.	.
.	.	.	.	.	.	.	.	8cc\J)	.	.	.	.	.	.	.	.	.	.	.	.	.	.	.	.	.	.	.	.	.	.	.
=49	=49	=49	=49	=49	=49	=49	=49	=49	=49	=49	=49	=49	=49	=49	=49	=49	=49	=49	=49	=49	=49	=49	=49	=49	=49	=49	=49	=49	=49	=49	=49
*	*	*	*	*	*	*	*	*	*	*	*	*	*	*^	*	*	*	*	*	*	*	*	*	*	*	*	*	*	*	*	*
2r	.	1E-_>	.	4r	.	4r	.	1b-	.	1ryy	1ryy	[>1B- [<1G-X	1EE-_	[>1g-X	N[>2.e-\	.	2.E-\	-le-	.	.	2.e-/	-le-	.	.	2.e-/	-le-	.	.	2.e-/	-le-	.	.
.	.	.	.	2g-X^>\	.	2g-X^</	.	.	.	.	.	.	.	.	.	.	.	.	.	.	.	.	.	.	.	.	.	.	.	.	.	.
4E-\	.	.	.	.	.	.	.	.	.	.	.	.	.	.	.	.	.	.	.	.	.	.	.	.	.	.	.	.	.	.	.	.
4r	.	.	.	8.d\L	.	8.d/L	.	.	.	.	.	.	.	.	8.d\L	.	8.D\L	-i-	.	.	8.d/L	-i-	.	.	8.d/L	-i-	.	.	8.d/L	-i-	.	.
*	*	*	*	*	*	*	*	*	*	*	*	*	*	*	*	*	*	*Xij	*	*	*	*Xij	*	*	*	*Xij	*	*	*	*	*	*
.	.	.	.	16e-\Jk	.	16e-/Jk	.	.	.	.	.	.	.	.	16e-\Jk	.	16E-\Jk	.	.	.	16e-/Jk	.	.	.	16e-/Jk	.	.	.	16e-/Jk	.	.	.
!!LO:PB:g=original
=50	=50	=50	=50	=50	=50	=50	=50	=50	=50	=50	=50	=50	=50	=50	=50	=50	=50	=50	=50	=50	=50	=50	=50	=50	=50	=50	=50	=50	=50	=50	=50	=50
1r	.	1E-_>	.	4e-\	.	4e-/	.	2an\	.	1ryy	1ryy	1c 1B-] 1G-X]	1EE-]	1g-X]	1e-N]	.	8E-\	-son	.	.	8e-/	-son	.	.	8e-/	-son	.	.	8e-/	-son	.	.
.	.	.	.	.	.	.	.	.	.	.	.	.	.	.	.	.	8r	.	.	.	8r	.	.	.	8r	.	.	.	8r	.	.	.
*	*	*	*	*	*	*	*	*	*	*	*	*	*	*	*	*	*	*ij	*	*	*	*ij	*	*	*	*ij	*	*	*	*	*	*
.	.	.	.	8.c/L	.	8.c/L	.	.	.	.	.	.	.	.	.	.	4E-\	Chri-	.	.	4e-/	Chri-	.	.	4e-/	Chri-	.	.	4e-/	Chri-	.	.
.	.	.	.	16B-/Jk	.	16B-/Jk	.	.	.	.	.	.	.	.	.	.	.	.	.	.	.	.	.	.	.	.	.	.	.	.	.	.
.	.	.	.	(<4B-/	.	(<4B-/	.	2cc\	.	.	.	.	.	.	.	.	4E-\	-ste	.	.	4e-/	-ste	.	.	4e-/	-ste	.	.	4e-/	-ste	.	.
.	.	.	.	4An/)	.	4An/)	.	.	.	.	.	.	.	.	.	.	4E-\	e-	.	.	4e-/	e-	.	.	4e-/	e-	.	.	4e-/	e-	.	.
=51	=51	=51	=51	=51	=51	=51	=51	=51	=51	=51	=51	=51	=51	=51	=51	=51	=51	=51	=51	=51	=51	=51	=51	=51	=51	=51	=51	=51	=51	=51	=51	=51
2r	.	4E-'\]	.	4A-X'/	.	4A-X/	.	4f/	.	1ryy	1ryy	[>1c-X [>1A-	[<1EE-	2raa]yy	[<2f\	.	2.E-\	-le-	.	.	2.e-/	-le-	.	.	2.e-/	-le-	.	.	2.e-/	-le-	.	.
.	.	2c-X^>\	.	2c-X^</	.	4c-X^</	.	4r	.	.	.	.	.	.	.	.	.	.	.	.	.	.	.	.	.	.	.	.	.	.	.	.
!	!	!	!	!	!	!	!	!	!LO:DY:b	!	!	!	!	!	!	!	!	!	!	!	!	!	!	!	!	!	!	!	!	!	!	!
4E-\	.	.	.	.	.	2r	.	[2ee-^<\	p	.	.	.	.	[>2ee-/	2f\_<	.	.	.	.	.	.	.	.	.	.	.	.	.	.	.	.	.
4r	.	8.G\L	.	8.G/L	.	.	.	.	.	.	.	.	.	.	.	.	4E-\	-i-	.	.	4e-/	-i-	.	.	4e-/	-i-	.	.	4e-/	-i-	.	.
.	.	16A-\Jk	.	16A-/Jk	.	.	.	.	.	.	.	.	.	.	.	.	.	.	.	.	.	.	.	.	.	.	.	.	.	.	.	.
=52	=52	=52	=52	=52	=52	=52	=52	=52	=52	=52	=52	=52	=52	=52	=52	=52	=52	=52	=52	=52	=52	=52	=52	=52	=52	=52	=52	=52	=52	=52	=52	=52
1r	.	4A-\	.	4A-/	.	4r	.	4ee-\]	.	1ryy	1ryy	1c-] 1A-]	1EE-]	4ee-/]	1f]	.	8E-\	-son,	.	.	8e-/	-son,	.	.	8e-/	-son,	.	.	8e-/	-son,	.	.
.	.	.	.	.	.	.	.	.	.	.	.	.	.	.	.	.	8r	.	.	.	8r	.	.	.	8r	.	.	.	8r	.	.	.
.	.	(>4A- 4F'\	.	(<4A- 4F'/	.	(<4e- 4c-X'/	.	(>8dd-X\L	.	.	.	.	.	(<8dd-X/L	.	.	4E-\	Chri-	.	.	4e-/	Chri-	.	.	4e-/	Chri-	.	.	4e-/	Chri-	.	.
.	.	.	.	.	.	.	.	8cc-X\J)	.	.	.	.	.	8cc-X/J	.	.	.	.	.	.	.	.	.	.	.	.	.	.	.	.	.	.
.	.	4A- 4F'\	.	4A- 4F'/	.	4e- 4c-'/	.	(<8b-/L	.	.	.	.	.	8b-/L	.	.	4E-\	-ste	.	.	4e-/	-ste	.	.	4e-/	-ste	.	.	4e-/	-ste	.	.
.	.	.	.	.	.	.	.	8a-/	.	.	.	.	.	8a-/	.	.	.	.	.	.	.	.	.	.	.	.	.	.	.	.	.	.
!LO:TX:a:i:t=arco	!	!	!	!	!	!	!	!	!	!	!	!	!	!	!	!	!	!	!	!	!	!	!	!	!	!	!	!	!	!	!	!
.	.	4A- 4F'\)	.	4A- 4F'/)	.	4e- 4c-'/	.	8g-X/	.	.	.	.	.	8g-X/	.	.	4E-\	e-	.	.	4e-/	e-	.	.	4e-/	e-	.	.	4e-/	e-	.	.
.	.	.	.	.	.	.	.	8a-/J)	.	.	.	.	.	8a-/J)	.	.	.	.	.	.	.	.	.	.	.	.	.	.	.	.	.	.
=53	=53	=53	=53	=53	=53	=53	=53	=53	=53	=53	=53	=53	=53	=53	=53	=53	=53	=53	=53	=53	=53	=53	=53	=53	=53	=53	=53	=53	=53	=53	=53	=53
*	*	*	*	*	*	*	*	*	*	*	*	*	*^	*	*	*	*	*	*	*	*	*	*	*	*	*	*	*	*	*	*	*
!	!LO:DY:b:rj	!	!	!	!	!	!	!	!	!	!	!	!	!	!	!	!	!	!	!	!	!	!	!	!	!	!	!	!	!	!	!	!
2E-\	pp	4G-X\	.	4G-X/	.	4B-/)	.	2b-\	.	1ryy	1ryy	2B-/	1G-X	2E-\	(>2b-/	1g-X	.	(>1G-X	-le-	.	.	(>1g-X	-le-	.	.	(>1g-X	-le-	.	.	(>1g-X	-le-	.	.
!	!	!	!	!LO:TX:a:i:t=marcato.	!	!LO:TX:a:i:t=marcato	!	!	!	!	!	!	!	!	!	!	!	!	!	!	!	!	!	!	!	!	!	!	!	!	!	!	!
.	.	8.D^>\L	.	8.D^</L	.	8.d^</L	.	.	.	.	.	.	.	.	.	.	.	.	.	.	.	.	.	.	.	.	.	.	.	.	.	.	.
.	.	16E-\Jk	.	16E-/Jk	.	16e-/Jk	.	.	.	.	.	.	.	.	.	.	.	.	.	.	.	.	.	.	.	.	.	.	.	.	.	.	.
2C-X/	.	2C-X/	.	4E-/	.	4e-/	.	2cc-X\	.	.	.	2c-X/	.	2C-X\	2cc-X/	.	.	.	.	.	.	.	.	.	.	.	.	.	.	.	.	.	.
.	.	.	.	8.D^</L	.	8.d^</L	.	.	.	.	.	.	.	.	.	.	.	.	.	.	.	.	.	.	.	.	.	.	.	.	.	.	.
.	.	.	.	16E-/Jk	.	16e-/Jk	.	.	.	.	.	.	.	.	.	.	.	.	.	.	.	.	.	.	.	.	.	.	.	.	.	.	.
*	*	*	*	*	*	*	*	*	*	*	*	*	*v	*v	*	*	*	*	*	*	*	*	*	*	*	*	*	*	*	*	*	*	*
=54	=54	=54	=54	=54	=54	=54	=54	=54	=54	=54	=54	=54	=54	=54	=54	=54	=54	=54	=54	=54	=54	=54	=54	=54	=54	=54	=54	=54	=54	=54	=54	=54
!	!	!	!	!	!	!	!	!	!	!	!	!	!	!	!	!	!LO:N:vis=2:xstem	!	!	!	!	!	!	!	!	!	!	!	!	!	!	!
2FF/	.	2FF/	.	2An^</	.	4e-/	.	(>2ccn\	.	1ryy	1ryy	2cn 2An [2F/	2FF\	2ccn/	4e-\	.	2F\)	.	.	.	2f/)	.	.	.	2f/)	.	.	.	2f/)	.	.	.
.	.	.	.	.	.	8.f^</L	.	.	.	.	.	.	.	.	8.f\L	.	.	.	.	.	.	.	.	.	.	.	.	.	.	.	.	.
.	.	.	.	.	.	16e-/Jk	.	.	.	.	.	.	.	.	16e-\Jk	.	.	.	.	.	.	.	.	.	.	.	.	.	.	.	.	.
2BB-/	.	2BB-/	.	2A-X/	.	2d/	.	8cc/L	.	.	.	2A-X 2F/]	2BB-\	8cc/L	2d\	.	2BB-/	-i-	.	.	2b-\	-i-	.	.	2d/	-i-	.	.	2f/	-i-	.	.
*	*	*	*	*	*	*	*	*	*	*	*	*	*	*	*	*	*	*Xij	*	*	*	*Xij	*	*	*	*Xij	*	*	*	*	*	*
.	.	.	.	.	.	.	.	8b-/)	.	.	.	.	.	8b-/	.	.	.	.	.	.	.	.	.	.	.	.	.	.	.	.	.	.
.	.	.	.	.	.	.	.	8a-/	.	.	.	.	.	8a-/)	.	.	.	.	.	.	.	.	.	.	.	.	.	.	.	.	.	.
.	.	.	.	.	.	.	.	8f/J	.	.	.	.	.	8f/J	.	.	.	.	.	.	.	.	.	.	.	.	.	.	.	.	.	.
*	*	*	*	*	*	*	*	*	*	*	*	*	*	*v	*v	*	*	*	*	*	*	*	*	*	*	*	*	*	*	*	*	*
=55	=55	=55	=55	=55	=55	=55	=55	=55	=55	=55	=55	=55	=55	=55	=55	=55	=55	=55	=55	=55	=55	=55	=55	=55	=55	=55	=55	=55	=55	=55	=55
*	*	*	*	*	*	*	*	*	*	*	*	*	*^	*	*	*^	*	*	*	*	*	*	*	*	*	*	*	*^	*	*	*
*	*	*	*	*	*	*	*	*	*	*	*	*	*	*	*	*	*	*	*	*	*	*	*	*	*	*	*	*	*	*	*^	*	*	*
!	!LO:DY:b:rj:t=ppp.	!	!LO:DY:b:t=ppp.	!	!LO:DY:b:t=ppp.	!	!LO:DY:b:t=ppp.	!	!LO:DY:b:rj:t=ppp.	!	!	!	!	!	!	!	!LO:TX:a:i:t=Solo	!	!	!	!	!	!	!	!	!	!	!	!	!LO:TX:a:i:t=Solo	!	!	!	!	!
[<1BB-	ppp	1BB-	ppp	1G	ppp	[>1e-	ppp	[>1g	ppp	1ryy	1ryy	4G/	[<1BB-	4E-\	4g 4e-/	.	[>1E-	2E-\	-son. Ky-	.	.	2b-\	-son.	.	.	2e-/	-son.	.	.	4raa	2g/	2g\	-son.	.	.
.	.	.	.	.	.	.	.	.	.	.	.	4r	.	4ryy	4r	.	.	.	.	.	.	.	.	.	.	.	.	.	.	2gg/	.	.	-e-	.	.
.	.	.	.	.	.	.	.	.	.	.	.	2r	.	2ryy	2r	.	.	2rC	.	.	.	2r	.	.	.	2r	.	.	.	.	2re	2re	.	.	.
.	.	.	.	.	.	.	.	.	.	.	.	.	.	.	.	.	.	.	.	.	.	.	.	.	.	.	.	.	.	8.dd/L	.	.	-le-	.	.
.	.	.	.	.	.	.	.	.	.	.	.	.	.	.	.	.	.	.	.	.	.	.	.	.	.	.	.	.	.	16ee-/Jk	.	.	-i-	.	.
*	*	*	*	*	*	*	*	*	*	*	*	*	*v	*v	*	*	*	*	*	*	*	*	*	*	*	*	*	*	*	*	*v	*v	*	*	*
=56	=56	=56	=56	=56	=56	=56	=56	=56	=56	=56	=56	=56	=56	=56	=56	=56	=56	=56	=56	=56	=56	=56	=56	=56	=56	=56	=56	=56	=56	=56	=56	=56	=56
1BB-_<	.	[>1E-	.	1B-	.	1e-]	.	1g]	.	1ryy	1ryy	1r	1BB-_<	1r	.	4E-/]	1rBB	.	.	.	1r	.	.	.	1r	.	.	.	8ee-/	1re	son	.	.
.	.	.	.	.	.	.	.	.	.	.	.	.	.	.	.	.	.	.	.	.	.	.	.	.	.	.	.	.	8raa	.	.	.	.
.	.	.	.	.	.	.	.	.	.	.	.	.	.	.	.	4E-/	.	ri-	.	.	.	.	.	.	.	.	.	.	8g/L	.	Chri-	.	.
.	.	.	.	.	.	.	.	.	.	.	.	.	.	.	.	.	.	.	.	.	.	.	.	.	.	.	.	.	8a-/J	.	.	.	.
.	.	.	.	.	.	.	.	.	.	.	.	.	.	.	.	4E-/	.	-e	.	.	.	.	.	.	.	.	.	.	4b-/	.	-ste	.	.
.	.	.	.	.	.	.	.	.	.	.	.	.	.	.	.	4E-/	.	e-	.	.	.	.	.	.	.	.	.	.	8dd/L	.	e-	.	.
.	.	.	.	.	.	.	.	.	.	.	.	.	.	.	.	.	.	.	.	.	.	.	.	.	.	.	.	.	8cc/J	.	.	.	.
!!LO:PB:g=original
=57	=57	=57	=57	=57	=57	=57	=57	=57	=57	=57	=57	=57	=57	=57	=57	=57	=57	=57	=57	=57	=57	=57	=57	=57	=57	=57	=57	=57	=57	=57	=57	=57	=57
*	*	*	*	*	*	*	*	*	*	*	*	*	*	*	*	*	*	*	*	*	*^	*	*	*	*	*	*	*	*	*	*	*	*
!	!	!	!	!	!	!	!	!	!	!	!	!	!	!	!	!	!	!	!	!	!LO:TX:a:i:t=Solo	!	!	!	!	!	!	!	!	!	!	!	!	!
1BB-_>	.	1E-_>	.	2B-/	.	[>1e-	.	2g-X/	.	1ryy	1ryy	1r	1BB-_<	1r	.	1E-	1rEE	-lei-	.	.	4raa	1re	.	.	.	1r	.	.	.	(>1b-	1re	-lei-	.	.
.	.	.	.	.	.	.	.	.	.	.	.	.	.	.	.	.	.	.	.	.	2gg-X/	.	e-	.	.	.	.	.	.	.	.	.	.	.
.	.	.	.	[<2G-X^</	.	.	.	2b-/	.	.	.	.	.	.	.	.	.	.	.	.	.	.	.	.	.	.	.	.	.	.	.	.	.	.
.	.	.	.	.	.	.	.	.	.	.	.	.	.	.	.	.	.	.	.	.	8.dd/	.	-le-	.	.	.	.	.	.	.	.	.	.	.
.	.	.	.	.	.	.	.	.	.	.	.	.	.	.	.	.	.	.	.	.	16ee-/	.	-i-	.	.	.	.	.	.	.	.	.	.	.
*	*	*	*	*	*	*	*	*	*	*	*	*	*	*	*	*	*	*	*	*	*v	*v	*	*	*	*	*	*	*	*	*	*	*	*
=58	=58	=58	=58	=58	=58	=58	=58	=58	=58	=58	=58	=58	=58	=58	=58	=58	=58	=58	=58	=58	=58	=58	=58	=58	=58	=58	=58	=58	=58	=58	=58	=58	=58
*	*	*	*	*	*	*	*	*	*	*	*	*	*	*	*	*	*	*	*	*	*^	*	*	*	*	*	*	*	*	*	*	*	*
1BB-_>	.	1E-]	.	2G-/]	.	1e-_>	.	2an/	.	1ryy	1ryy	1r	1BB-_<	1r	.	4E-\	1rEE	-son	.	.	8ee-/	1re	-son	.	.	1r	.	.	.	2an/	1re	.	.	.
.	.	.	.	.	.	.	.	.	.	.	.	.	.	.	.	.	.	.	.	.	8r	.	.	.	.	.	.	.	.	.	.	.	.	.
.	.	.	.	.	.	.	.	.	.	.	.	.	.	.	.	4E-\	.	Chri-	.	.	8cc/L	.	Chri-	.	.	.	.	.	.	.	.	.	.	.
.	.	.	.	.	.	.	.	.	.	.	.	.	.	.	.	.	.	.	.	.	8b-/J	.	.	.	.	.	.	.	.	.	.	.	.	.
.	.	.	.	2F/	.	.	.	2cc\	.	.	.	.	.	.	.	4E-\	.	-ste	.	.	4b-/	.	-ste	.	.	.	.	.	.	2cc/)	.	.	.	.
.	.	.	.	.	.	.	.	.	.	.	.	.	.	.	.	4E-\	.	e-	.	.	4an/	.	e-	.	.	.	.	.	.	.	.	.	.	.
*	*	*	*	*	*	*	*	*	*	*	*	*	*	*	*	*	*	*	*	*	*v	*v	*	*	*	*	*	*	*	*	*	*	*	*
=59	=59	=59	=59	=59	=59	=59	=59	=59	=59	=59	=59	=59	=59	=59	=59	=59	=59	=59	=59	=59	=59	=59	=59	=59	=59	=59	=59	=59	=59	=59	=59	=59	=59
*	*	*	*	*	*	*	*	*	*	*	*	*	*	*	*	*	*	*	*	*	*^	*	*	*	*^	*	*	*	*	*	*	*	*
1BB-_>	.	[>1F	.	[<1A-X	.	1e-_>	.	2cc-X\	.	1ryy	1ryy	1r	1BB-_<	1r	.	1F	1rEE	-lei-	.	.	1a-X	1re	-lei-	.	.	4raa	1re	.	.	.	4cc-X/	1re	-son	.	.
!	!	!	!	!	!	!	!	!	!	!	!	!	!	!	!	!	!	!	!	!	!	!	!	!	!	!LO:TX:a:i:t=Solo	!	!	!	!	!	!	!	!	!
.	.	.	.	.	.	.	.	.	.	.	.	.	.	.	.	.	.	.	.	.	.	.	.	.	.	2cc-X^</	.	e-	.	.	4raa	.	.	.	.
.	.	.	.	.	.	.	.	2e-/	.	.	.	.	.	.	.	.	.	.	.	.	.	.	.	.	.	.	.	.	.	.	[>2ee-/	.	Ky-	.	.
.	.	.	.	.	.	.	.	.	.	.	.	.	.	.	.	.	.	.	.	.	.	.	.	.	.	8.g/	.	-le-	.	.	.	.	.	.	.
.	.	.	.	.	.	.	.	.	.	.	.	.	.	.	.	.	.	.	.	.	.	.	.	.	.	16a-/	.	-i-	.	.	.	.	.	.	.
*	*	*	*	*	*	*	*	*	*	*	*	*	*	*	*	*	*	*	*	*	*	*	*	*	*	*v	*v	*	*	*	*	*	*	*	*
=60	=60	=60	=60	=60	=60	=60	=60	=60	=60	=60	=60	=60	=60	=60	=60	=60	=60	=60	=60	=60	=60	=60	=60	=60	=60	=60	=60	=60	=60	=60	=60	=60	=60	=60
4BB-\]	.	4F\]	.	4A-/]	.	1e-]	.	2a-/	.	1ryy	1ryy	1r	(<1BB-]	1r	.	4E-\	1rEE	-son	.	.	4a-/	1re	-son	.	.	8a-/	-son	.	.	4ee-/]	1re	.	.	.
.	.	.	.	.	.	.	.	.	.	.	.	.	.	.	.	.	.	.	.	.	.	.	.	.	.	8r	.	.	.	.	.	.	.	.
4BB-\	.	4F\	.	4A-/	.	.	.	.	.	.	.	.	.	.	.	4E-\	.	Chri-	.	.	4a-/	.	Chri-	.	.	4f/	Chri-	.	.	8dd-X/L	.	-ri-	.	.
.	.	.	.	.	.	.	.	.	.	.	.	.	.	.	.	.	.	.	.	.	.	.	.	.	.	.	.	.	.	8cc-X/J	.	.	.	.
4BB-\	.	4F\	.	4A-/	.	.	.	4c-X/	.	.	.	.	.	.	.	4E-\	.	-ste	.	.	4a-/	.	-ste	.	.	4f/	-ste	.	.	8b-/L	.	-e	.	.
.	.	.	.	.	.	.	.	.	.	.	.	.	.	.	.	.	.	.	.	.	.	.	.	.	.	.	.	.	.	8a-/J	.	.	.	.
4BB-\	.	(>8E-\L	.	(<8G-X/L	.	.	.	4e-/	.	.	.	.	.	.	.	4E-\	.	e-	.	.	8b-/L	.	e-	.	.	8g-X/L	e-	.	.	8g-X/L	.	e-	.	.
.	.	8F\J)	.	8A-/J)	.	.	.	.	.	.	.	.	.	.	.	.	.	.	.	.	8a-/J	.	.	.	.	8f/J	.	.	.	8a-/J	.	.	.	.
*	*	*	*	*	*	*	*	*	*	*	*	*	*	*	*	*	*	*	*	*	*v	*v	*	*	*	*	*	*	*	*v	*v	*	*	*
=61	=61	=61	=61	=61	=61	=61	=61	=61	=61	=61	=61	=61	=61	=61	=61	=61	=61	=61	=61	=61	=61	=61	=61	=61	=61	=61	=61	=61	=61	=61	=61	=61
4E-\	.	(>4G-X\	.	(<4B-/	.	2e-/	.	4e-/	.	1ryy	1ryy	1ryy	4E-\)	1r	.	(>2E-/	1rEE	-lei-	.	.	(<2g/	-lei-	.	.	(<1e-	-lei-	.	.	2b-/	-lei-	.	.
4r	.	4E-\)	.	4G-X/)	.	.	.	4rgg	.	.	.	.	4r	.	.	.	.	.	.	.	.	.	.	.	.	.	.	.	.	.	.	.
!	!	!	!	!	!	!	!	!	!LO:HP:b	!	!	!	!	!	!	!	!	!	!	!	!	!	!	!	!	!	!	!	!	!	!	!
2r	.	2C-X/	.	2G-/	.	2c-X/	.	2e-/	<[	.	.	.	2r	.	.	2C-X/	.	.	.	.	[>2g-X/	.	.	.	.	.	.	.	[<2cc-X/	-son	.	.
*	*	*	*	*	*	*	*	*	*	*	*	*v	*v	*	*	*	*	*	*	*	*	*	*	*	*	*	*	*	*	*	*	*
=62	=62	=62	=62	=62	=62	=62	=62	=62	=62	=62	=62	=62	=62	=62	=62	=62	=62	=62	=62	=62	=62	=62	=62	=62	=62	=62	=62	=62	=62	=62	=62
!	!	!	!	!	!	!	!	!	!LO:HP:b	!	!	!	!	!	!	!	!	!	!	!	!	!	!	!	!	!	!	!	!	!	!
1r	.	2GG-X/	.	2B-/	.	2d-X/	.	4g-X/	>	1ryy	1ryy	1r	1r	.	2GG-X/	1rEE	.	.	.	2g-/]	.	.	.	2d-X/)	.	.	.	8cc-/L]	.	.	.
.	.	.	.	.	.	.	.	.	.	.	.	.	.	.	.	.	.	.	.	.	.	.	.	.	.	.	.	8b-/J	.	.	.
.	.	.	.	.	.	.	.	(8f/L	.	.	.	.	.	.	.	.	.	.	.	.	.	.	.	.	.	.	.	8dd-X/L	e-	.	.
.	.	.	.	.	.	.	.	8e-/J)	]	.	.	.	.	.	.	.	.	.	.	.	.	.	.	.	.	.	.	8cc-X/J	.	.	.
.	.	2BB-/	.	2F/	.	2dn/	.	[<2B-/	.	.	.	.	.	.	2BB-/)	.	.	.	.	2f/)	.	.	.	2dn/	.	.	.	4.b-/	-le-	.	.
!	!	!	!	!	!	!	!	!	!	!	!	!	!	!	!	!	!	!	!	!	!	!	!	!	!	!	!	!LO:TX:b:i:t=tutti	!	!	!
.	.	.	.	.	.	.	.	.	.	.	.	.	.	.	.	.	.	.	.	.	.	.	.	.	.	.	.	8a-/	-i-	.	.
=63	=63	=63	=63	=63	=63	=63	=63	=63	=63	=63	=63	=63	=63	=63	=63	=63	=63	=63	=63	=63	=63	=63	=63	=63	=63	=63	=63	=63	=63	=63	=63
*	*	*	*	*	*	*	*	*	*	*	*	*	*	*	*	*	*	*	*	*^	*	*	*	*^	*	*	*	*^	*	*	*
!	!	!	!	!	!	!	!	!	!	!	!	!	!	!	!LO:TX:a:rj:i:t=tutti	!	!	!	!	!LO:TX:a:rj:i:t=tutti	!	!	!	!	!LO:TX:a:rj:i:t=tutti	!	!	!	!	!	!	!	!	!
[>1E-	.	[>1BB-	.	2Gn/	.	2e-/	.	2B-/]	.	1ryy	1ryy	1r	1r	.	4E-/	4.E-\	-son.	Ky-	.	4e-/	4.e-\	-son.	Ky-	.	4e-/	4.e-\	-son.	Ky-	.	4gn/	4.gn\	-son.	Ky-	.
.	.	.	.	.	.	.	.	.	.	.	.	.	.	.	4rc	.	.	.	.	4raa	.	.	.	.	4rdd	.	.	.	.	4raa	.	.	.	.
.	.	.	.	.	.	.	.	.	.	.	.	.	.	.	.	8E-\	.	-ri-	.	.	8b-\	.	-ri-	.	.	8e-\	.	-ri-	.	.	8g\	.	-ri-	.
.	.	.	.	2r	.	2r	.	2r	.	.	.	.	.	.	2rc	4E-\	.	-e	.	2rff	4b-\	.	-e	.	2rdd	4e-\	.	-e	.	2rff	4g\	.	-e	.
.	.	.	.	.	.	.	.	.	.	.	.	.	.	.	.	4E-\	.	e-	.	.	4b-\	.	e-	.	.	4e-\	.	e-	.	.	4g\	.	e-	.
=64	=64	=64	=64	=64	=64	=64	=64	=64	=64	=64	=64	=64	=64	=64	=64	=64	=64	=64	=64	=64	=64	=64	=64	=64	=64	=64	=64	=64	=64	=64	=64	=64	=64	=64
1E-]	.	1BB-]	.	1r	.	1r	.	1r	.	1ryy	1ryy	1r	1r	.	1rc	1E-	.	-lei-	.	1raa	(>2.g\	.	-lei-	.	1rff	[>1e-	.	-lei-	.	1raa	(>2.b-\	.	-lei-	.
.	.	.	.	.	.	.	.	.	.	.	.	.	.	.	.	.	.	.	.	.	4b-\)	.	.	.	.	.	.	.	.	.	4g\)	.	.	.
=65	=65	=65	=65	=65	=65	=65	=65	=65	=65	=65	=65	=65	=65	=65	=65	=65	=65	=65	=65	=65	=65	=65	=65	=65	=65	=65	=65	=65	=65	=65	=65	=65	=65	=65
2E-\	.	2BB-/	.	2r	.	2r	.	2r	.	1ryy	1ryy	1r	1r	.	1rc	[<1E-	.	-son.	.	1ryy	[<1g	.	-son.	.	1rdd	1e-_> [<1B-	.	-son	.	1ryy	[<1e-	.	-son	.
!	!LO:DY:b:rj:t=pp.	!	!LO:DY:b:t=pp.	!	!LO:DY:b:t=pp.	!	!LO:DY:b:rj	!	!LO:DY:b	!	!	!	!	!	!	!	!	!	!	!	!	!	!	!	!	!	!	!	!	!	!	!	!	!
2E-\	pp	4..BB-/	pp	4..E-/	pp	4..G/	pp	4..B-/	pp	.	.	.	.	.	.	.	.	.	.	.	.	.	.	.	.	.	.	.	.	.	.	.	.	.
.	.	16B-\	.	16E-/	.	16e-/	.	16g/	.	.	.	.	.	.	.	.	.	.	.	.	.	.	.	.	.	.	.	.	.	.	.	.	.	.
=66	=66	=66	=66	=66	=66	=66	=66	=66	=66	=66	=66	=66	=66	=66	=66	=66	=66	=66	=66	=66	=66	=66	=66	=66	=66	=66	=66	=66	=66	=66	=66	=66	=66	=66
1E-;>	.	1B-;>	.	1E-;>	.	1e-;>	.	1g;>	.	1r;>	1r;>	1r;>	1r;>	.	1rc;>	4E-\]	.	.	.	1ryy	4g/]	.	.	.	1rdd;>	4e-] 4B-/]	.	.	.	1ryy	4e-/]	.	.	.
.	.	.	.	.	.	.	.	.	.	.	.	.	.	.	.	4rD	.	.	.	.	4rcc	.	.	.	.	4ryy	.	.	.	.	4r	.	.	.
.	.	.	.	.	.	.	.	.	.	.	.	.	.	.	.	2rF;>	.	.	.	.	2rcc;>	.	.	.	.	2ryy	.	.	.	.	2rcc;>	.	.	.
*	*	*	*	*	*	*	*	*	*	*	*	*	*	*	*v	*v	*	*	*	*	*	*	*	*	*v	*v	*	*	*	*v	*v	*	*	*
*	*	*	*	*	*	*	*	*	*	*	*	*	*	*	*	*	*	*	*v	*v	*	*	*	*	*	*	*	*	*	*	*
==	==	==	==	==	==	==	==	==	==	==	==	==	==	==	==	==	==	==	==	==	==	==	==	==	==	==	==	==	==	==
*-	*-	*-	*-	*-	*-	*-	*-	*-	*-	*-	*-	*-	*-	*-	*-	*-	*-	*-	*-	*-	*-	*-	*-	*-	*-	*-	*-	*-	*-	*-
!!!system-decoration: [(g1)][(s5,s6)][(s7,s8)][(g2)]
!!!RDF**kern: | = vertical stroke
!!!RDF**kern: N = linked
!!!RDF**kern: @ = marked note, color=dodgerblue
!!!RDF**dynam: > = "diminuendo", 'fontstyle="italics"
!!!RDF**kern: > = above
!!!RDF**kern: < = below
!!!EED: Antoni Szymański
!!!EST: 2021-07-21
!!!ENC: Mateusz Solarz
!!!END: 2021-07-15
